;FLAVOR:Marlin
;TIME:14771
;Filament used: 11.0187m
;Layer height: 0.2
;MINX:41.78
;MINY:87.5
;MINZ:0.2
;MAXX:178.22
;MAXY:132.5
;MAXZ:8.8
;Generated with Cura_SteamEngine 4.11.0
M140 S50
M105
M190 S50
M104 S200
M105
M109 S200
M82 ;absolute extrusion mode
; Ender 3 Custom Start G-code
G92 E0 ; Reset Extruder
G28 ; Home all axes
G29 ; Auto bed-level (BL-Touch)
G1 Z2.0 F3000 ; Move Z Axis up little to prevent scratching of Heat Bed
G1 X0.1 Y20 Z0.3 F5000.0 ; Move to start position
G1 X0.1 Y200.0 Z0.3 F1500.0 E15 ; Draw the first line
G1 X0.4 Y200.0 Z0.3 F5000.0 ; Move to side a little
G1 X0.4 Y20 Z0.3 F1500.0 E30 ; Draw the second line
G92 E0 ; Reset Extruder
G1 Z2.0 F3000 ; Move Z Axis up little to prevent scratching of Heat Bed
G1 X5 Y20 Z0.3 F5000.0 ; Move over to prevent blob squish
G92 E0
G92 E0
G1 F2700 E-5
;LAYER_COUNT:44
;LAYER:0
M107
G0 F6000 X46.998 Y88.637 Z0.2
;TYPE:SKIRT
G1 F2700 E0
G1 F1200 X47.799 Y88.259 E0.02946
G1 X48.63 Y87.955 E0.05889
G1 X49.485 Y87.727 E0.08832
G1 X50.358 Y87.577 E0.11778
G1 X51.58 Y87.5 E0.15851
G1 X168.42 Y87.5 E4.04462
G1 X169.304 Y87.54 E4.07405
G1 X170.181 Y87.66 E4.10349
G1 X171.044 Y87.858 E4.13294
G1 X171.885 Y88.133 E4.16237
G1 X172.698 Y88.483 E4.19181
G1 X173.477 Y88.905 E4.22128
G1 X174.213 Y89.396 E4.25071
G1 X174.903 Y89.951 E4.28016
G1 X175.54 Y90.566 E4.30961
G1 X176.118 Y91.236 E4.33904
G1 X176.634 Y91.955 E4.36847
G1 X177.083 Y92.718 E4.39792
G1 X177.461 Y93.519 E4.42738
G1 X177.765 Y94.35 E4.45681
G1 X177.993 Y95.205 E4.48624
G1 X178.143 Y96.078 E4.5157
G1 X178.22 Y97.3 E4.55643
G1 X178.22 Y122.7 E5.40123
G1 X178.18 Y123.584 E5.43067
G1 X178.06 Y124.461 E5.46011
G1 X177.862 Y125.324 E5.48956
G1 X177.587 Y126.165 E5.51898
G1 X177.237 Y126.978 E5.54842
G1 X176.815 Y127.757 E5.57789
G1 X176.324 Y128.493 E5.60732
G1 X175.769 Y129.183 E5.63677
G1 X175.154 Y129.82 E5.66622
G1 X174.484 Y130.398 E5.69565
G1 X173.765 Y130.914 E5.72509
G1 X173.002 Y131.363 E5.75453
G1 X172.201 Y131.741 E5.78399
G1 X171.37 Y132.045 E5.81342
G1 X170.515 Y132.273 E5.84285
G1 X169.642 Y132.423 E5.87231
G1 X168.42 Y132.5 E5.91304
G1 X51.58 Y132.5 E9.79915
G1 X50.696 Y132.46 E9.82858
G1 X49.819 Y132.34 E9.85803
G1 X48.956 Y132.142 E9.88747
G1 X48.115 Y131.867 E9.9169
G1 X47.302 Y131.517 E9.94634
G1 X46.523 Y131.095 E9.97581
G1 X45.787 Y130.604 E10.00524
G1 X45.097 Y130.049 E10.03469
G1 X44.46 Y129.434 E10.06414
G1 X43.882 Y128.764 E10.09357
G1 X43.366 Y128.045 E10.12301
G1 X42.917 Y127.282 E10.15245
G1 X42.539 Y126.481 E10.18191
G1 X42.235 Y125.65 E10.21134
G1 X42.007 Y124.795 E10.24077
G1 X41.857 Y123.922 E10.27023
G1 X41.78 Y122.7 E10.31096
G1 X41.78 Y97.3 E11.15576
G1 X41.82 Y96.416 E11.1852
G1 X41.94 Y95.539 E11.21464
G1 X42.138 Y94.676 E11.24409
G1 X42.413 Y93.835 E11.27352
G1 X42.763 Y93.022 E11.30296
G1 X43.185 Y92.243 E11.33242
G1 X43.676 Y91.507 E11.36185
G1 X44.231 Y90.817 E11.3913
G1 X44.846 Y90.18 E11.42075
G1 X45.516 Y89.602 E11.45018
G1 X46.235 Y89.086 E11.47962
G1 X46.998 Y88.637 E11.50906
G0 F6000 X47.376 Y88.892
G1 F1200 X48.169 Y88.541 E11.53791
G1 X48.99 Y88.264 E11.56673
G1 X49.834 Y88.064 E11.59557
G1 X50.692 Y87.942 E11.6244
G1 X51.58 Y87.9 E11.65397
G1 X168.42 Y87.9 E15.54008
G1 X169.286 Y87.94 E15.56891
G1 X170.145 Y88.06 E15.59776
G1 X170.989 Y88.258 E15.6266
G1 X171.811 Y88.533 E15.65543
G1 X172.604 Y88.883 E15.68426
G1 X173.362 Y89.304 E15.71309
G1 X174.077 Y89.793 E15.7419
G1 X174.745 Y90.346 E15.77075
G1 X175.359 Y90.959 E15.79961
G1 X175.914 Y91.625 E15.82844
G1 X176.404 Y92.339 E15.85724
G1 X176.828 Y93.096 E15.8861
G1 X177.179 Y93.889 E15.91494
G1 X177.456 Y94.71 E15.94376
G1 X177.656 Y95.554 E15.97261
G1 X177.778 Y96.412 E16.00144
G1 X177.82 Y97.3 E16.031
G1 X177.82 Y122.7 E16.87581
G1 X177.78 Y123.566 E16.90465
G1 X177.66 Y124.425 E16.93349
G1 X177.462 Y125.269 E16.96233
G1 X177.187 Y126.091 E16.99116
G1 X176.837 Y126.884 E17.01999
G1 X176.416 Y127.642 E17.04882
G1 X175.927 Y128.357 E17.07764
G1 X175.374 Y129.025 E17.10648
G1 X174.761 Y129.639 E17.13534
G1 X174.095 Y130.194 E17.16417
G1 X173.381 Y130.684 E17.19297
G1 X172.624 Y131.108 E17.22183
G1 X171.831 Y131.459 E17.25067
G1 X171.01 Y131.736 E17.27949
G1 X170.166 Y131.936 E17.30834
G1 X169.308 Y132.058 E17.33717
G1 X168.42 Y132.1 E17.36673
G1 X51.58 Y132.1 E21.25285
G1 X50.714 Y132.06 E21.28168
G1 X49.855 Y131.94 E21.31053
G1 X49.011 Y131.742 E21.33936
G1 X48.189 Y131.467 E21.36819
G1 X47.396 Y131.117 E21.39702
G1 X46.638 Y130.696 E21.42586
G1 X45.923 Y130.207 E21.45467
G1 X45.255 Y129.654 E21.48352
G1 X44.641 Y129.041 E21.51237
G1 X44.086 Y128.375 E21.54121
G1 X43.596 Y127.661 E21.57001
G1 X43.172 Y126.904 E21.59887
G1 X42.821 Y126.111 E21.62771
G1 X42.544 Y125.29 E21.65653
G1 X42.344 Y124.446 E21.68538
G1 X42.222 Y123.588 E21.7142
G1 X42.18 Y122.7 E21.74377
G1 X42.18 Y97.3 E22.58858
G1 X42.22 Y96.434 E22.61741
G1 X42.34 Y95.575 E22.64626
G1 X42.538 Y94.731 E22.67509
G1 X42.813 Y93.909 E22.70392
G1 X43.163 Y93.116 E22.73275
G1 X43.584 Y92.358 E22.76159
G1 X44.073 Y91.643 E22.7904
G1 X44.626 Y90.975 E22.81925
G1 X45.239 Y90.361 E22.8481
G1 X45.905 Y89.806 E22.87694
G1 X46.619 Y89.316 E22.90574
G1 X47.376 Y88.892 E22.9346
G0 F6000 X47.002 Y89.551
G1 F1200 X47.752 Y89.155 E22.96281
G1 X48.536 Y88.83 E22.99104
G1 X49.347 Y88.581 E23.01925
G1 X50.178 Y88.41 E23.04747
G1 X51.021 Y88.317 E23.07568
G1 X51.58 Y88.3 E23.09428
G1 X168.42 Y88.3 E26.98039
G1 X169.267 Y88.34 E27.0086
G1 X170.107 Y88.46 E27.03682
G1 X170.932 Y88.658 E27.06504
G1 X171.735 Y88.933 E27.09327
G1 X172.508 Y89.282 E27.12148
G1 X173.244 Y89.702 E27.14966
G1 X173.938 Y90.19 E27.17788
G1 X174.583 Y90.741 E27.20609
G1 X175.173 Y91.351 E27.23432
G1 X175.703 Y92.013 E27.26253
G1 X176.169 Y92.722 E27.29074
G1 X176.565 Y93.472 E27.31895
G1 X176.89 Y94.256 E27.34718
G1 X177.139 Y95.067 E27.3754
G1 X177.31 Y95.898 E27.40362
G1 X177.403 Y96.741 E27.43182
G1 X177.42 Y97.3 E27.45043
G1 X177.42 Y122.7 E28.29523
G1 X177.38 Y123.547 E28.32344
G1 X177.26 Y124.387 E28.35166
G1 X177.062 Y125.212 E28.37988
G1 X176.787 Y126.015 E28.40811
G1 X176.438 Y126.788 E28.43632
G1 X176.018 Y127.524 E28.4645
G1 X175.53 Y128.218 E28.49272
G1 X174.979 Y128.863 E28.52093
G1 X174.369 Y129.453 E28.54916
G1 X173.707 Y129.983 E28.57737
G1 X172.998 Y130.449 E28.60558
G1 X172.248 Y130.845 E28.63379
G1 X171.464 Y131.17 E28.66202
G1 X170.653 Y131.419 E28.69024
G1 X169.822 Y131.59 E28.71846
G1 X168.979 Y131.683 E28.74666
G1 X168.42 Y131.7 E28.76527
G1 X51.58 Y131.7 E32.65138
G1 X50.733 Y131.66 E32.67958
G1 X49.893 Y131.54 E32.7078
G1 X49.068 Y131.342 E32.73602
G1 X48.265 Y131.067 E32.76425
G1 X47.492 Y130.718 E32.79246
G1 X46.756 Y130.298 E32.82065
G1 X46.062 Y129.81 E32.84887
G1 X45.417 Y129.259 E32.87708
G1 X44.827 Y128.649 E32.90531
G1 X44.297 Y127.987 E32.93351
G1 X43.831 Y127.278 E32.96173
G1 X43.435 Y126.528 E32.98994
G1 X43.11 Y125.744 E33.01817
G1 X42.861 Y124.933 E33.04638
G1 X42.69 Y124.102 E33.0746
G1 X42.597 Y123.259 E33.10281
G1 X42.58 Y122.7 E33.12141
G1 X42.58 Y97.3 E33.96622
G1 X42.62 Y96.453 E33.99442
G1 X42.74 Y95.613 E34.02264
G1 X42.938 Y94.788 E34.05086
G1 X43.213 Y93.985 E34.07909
G1 X43.562 Y93.212 E34.1073
G1 X43.982 Y92.476 E34.13549
G1 X44.47 Y91.782 E34.16371
G1 X45.021 Y91.137 E34.19192
G1 X45.631 Y90.547 E34.22015
G1 X46.293 Y90.017 E34.24835
G1 X47.002 Y89.551 E34.27657
G0 F6000 X47.383 Y89.793
G1 F1200 X48.126 Y89.424 E34.30416
G1 X48.901 Y89.128 E34.33176
G1 X49.7 Y88.908 E34.35932
G1 X50.517 Y88.766 E34.3869
G1 X51.58 Y88.7 E34.42232
G1 X168.42 Y88.7 E38.30844
G1 X169.248 Y88.74 E38.33601
G1 X170.069 Y88.86 E38.36361
G1 X170.874 Y89.058 E38.39118
G1 X171.656 Y89.332 E38.41874
G1 X172.409 Y89.681 E38.44634
G1 X173.124 Y90.101 E38.47392
G1 X173.795 Y90.587 E38.50148
G1 X174.417 Y91.136 E38.52907
G1 X174.983 Y91.742 E38.55665
G1 X175.488 Y92.4 E38.58424
G1 X175.927 Y93.103 E38.61181
G1 X176.296 Y93.846 E38.6394
G1 X176.592 Y94.621 E38.66699
G1 X176.812 Y95.42 E38.69456
G1 X176.954 Y96.237 E38.72214
G1 X177.02 Y97.3 E38.75756
G1 X177.02 Y122.7 E39.60237
G1 X176.98 Y123.528 E39.62994
G1 X176.86 Y124.349 E39.65754
G1 X176.662 Y125.154 E39.68511
G1 X176.388 Y125.936 E39.71267
G1 X176.039 Y126.689 E39.74027
G1 X175.619 Y127.404 E39.76785
G1 X175.133 Y128.075 E39.79541
G1 X174.584 Y128.697 E39.823
G1 X173.978 Y129.263 E39.85058
G1 X173.32 Y129.768 E39.87817
G1 X172.617 Y130.207 E39.90574
G1 X171.874 Y130.576 E39.93333
G1 X171.099 Y130.872 E39.96092
G1 X170.3 Y131.092 E39.98848
G1 X169.483 Y131.234 E40.01607
G1 X168.42 Y131.3 E40.05149
G1 X51.58 Y131.3 E43.9376
G1 X50.752 Y131.26 E43.96517
G1 X49.931 Y131.14 E43.99277
G1 X49.126 Y130.942 E44.02034
G1 X48.344 Y130.668 E44.0479
G1 X47.591 Y130.319 E44.07551
G1 X46.876 Y129.899 E44.10309
G1 X46.205 Y129.413 E44.13064
G1 X45.583 Y128.864 E44.15824
G1 X45.017 Y128.258 E44.18582
G1 X44.512 Y127.6 E44.21341
G1 X44.073 Y126.897 E44.24097
G1 X43.704 Y126.154 E44.26856
G1 X43.408 Y125.379 E44.29616
G1 X43.188 Y124.58 E44.32372
G1 X43.046 Y123.763 E44.3513
G1 X42.98 Y122.7 E44.38672
G1 X42.98 Y97.3 E45.23153
G1 X43.02 Y96.472 E45.2591
G1 X43.14 Y95.651 E45.2867
G1 X43.338 Y94.846 E45.31427
G1 X43.612 Y94.064 E45.34183
G1 X43.961 Y93.311 E45.36944
G1 X44.381 Y92.596 E45.39702
G1 X44.867 Y91.925 E45.42457
G1 X45.416 Y91.303 E45.45217
G1 X46.022 Y90.737 E45.47975
G1 X46.68 Y90.232 E45.50733
G1 X47.383 Y89.793 E45.5349
G0 F6000 X47.763 Y90.043
G1 F1200 X48.497 Y89.701 E45.56183
G1 X49.262 Y89.435 E45.58877
G1 X50.049 Y89.244 E45.61571
G1 X50.851 Y89.132 E45.64264
G1 X51.58 Y89.1 E45.66691
G1 X168.42 Y89.1 E49.55303
G1 X169.229 Y89.14 E49.57997
G1 X170.03 Y89.26 E49.6069
G1 X170.815 Y89.457 E49.63382
G1 X171.576 Y89.732 E49.66074
G1 X172.307 Y90.08 E49.68766
G1 X173.001 Y90.499 E49.71463
G1 X173.649 Y90.984 E49.74155
G1 X174.246 Y91.53 E49.76846
G1 X174.787 Y92.133 E49.7954
G1 X175.266 Y92.786 E49.82234
G1 X175.677 Y93.483 E49.84925
G1 X176.019 Y94.217 E49.87618
G1 X176.285 Y94.982 E49.90312
G1 X176.476 Y95.769 E49.93006
G1 X176.588 Y96.571 E49.95699
G1 X176.62 Y97.3 E49.98126
G1 X176.62 Y122.7 E50.82607
G1 X176.58 Y123.509 E50.85301
G1 X176.46 Y124.31 E50.87995
G1 X176.263 Y125.095 E50.90686
G1 X175.988 Y125.856 E50.93378
G1 X175.64 Y126.587 E50.96071
G1 X175.221 Y127.281 E50.98767
G1 X174.736 Y127.929 E51.01459
G1 X174.19 Y128.526 E51.0415
G1 X173.587 Y129.067 E51.06844
G1 X172.934 Y129.546 E51.09538
G1 X172.237 Y129.957 E51.12229
G1 X171.503 Y130.299 E51.14922
G1 X170.738 Y130.565 E51.17616
G1 X169.951 Y130.756 E51.2031
G1 X169.149 Y130.868 E51.23003
G1 X168.42 Y130.9 E51.2543
G1 X51.58 Y130.9 E55.14041
G1 X50.771 Y130.86 E55.16735
G1 X49.97 Y130.74 E55.19429
G1 X49.185 Y130.543 E55.22121
G1 X48.424 Y130.268 E55.24813
G1 X47.693 Y129.92 E55.27505
G1 X46.999 Y129.501 E55.30202
G1 X46.351 Y129.016 E55.32894
G1 X45.754 Y128.47 E55.35585
G1 X45.213 Y127.867 E55.38279
G1 X44.734 Y127.214 E55.40973
G1 X44.323 Y126.517 E55.43664
G1 X43.981 Y125.783 E55.46357
G1 X43.715 Y125.018 E55.49051
G1 X43.524 Y124.231 E55.51744
G1 X43.412 Y123.429 E55.54438
G1 X43.38 Y122.7 E55.56865
G1 X43.38 Y97.3 E56.41346
G1 X43.42 Y96.491 E56.4404
G1 X43.54 Y95.69 E56.46733
G1 X43.737 Y94.905 E56.49425
G1 X44.012 Y94.144 E56.52117
G1 X44.36 Y93.413 E56.54809
G1 X44.779 Y92.719 E56.57506
G1 X45.264 Y92.071 E56.60198
G1 X45.81 Y91.474 E56.62889
G1 X46.413 Y90.933 E56.65583
G1 X47.066 Y90.454 E56.68277
G1 X47.763 Y90.043 E56.70968
G0 F6000 X48.141 Y90.299
G1 F1200 X48.866 Y89.987 E56.73593
G1 X49.619 Y89.75 E56.76219
G1 X50.393 Y89.591 E56.78847
G1 X51.178 Y89.51 E56.81472
G1 X51.58 Y89.5 E56.82809
G1 X168.42 Y89.5 E60.7142
G1 X169.209 Y89.54 E60.74048
G1 X169.989 Y89.659 E60.76672
G1 X170.754 Y89.857 E60.79301
G1 X171.494 Y90.131 E60.81925
G1 X172.203 Y90.479 E60.84552
G1 X172.874 Y90.897 E60.87181
G1 X173.498 Y91.38 E60.89806
G1 X174.071 Y91.923 E60.92432
G1 X174.586 Y92.522 E60.95059
G1 X175.037 Y93.17 E60.97685
G1 X175.421 Y93.861 E61.00314
G1 X175.733 Y94.586 E61.02939
G1 X175.97 Y95.339 E61.05565
G1 X176.129 Y96.113 E61.08193
G1 X176.21 Y96.898 E61.10818
G1 X176.22 Y97.3 E61.12155
G1 X176.22 Y122.7 E61.96636
G1 X176.18 Y123.489 E61.99264
G1 X176.061 Y124.269 E62.01888
G1 X175.863 Y125.034 E62.04516
G1 X175.589 Y125.774 E62.07141
G1 X175.241 Y126.483 E62.09768
G1 X174.823 Y127.154 E62.12397
G1 X174.34 Y127.778 E62.15021
G1 X173.797 Y128.351 E62.17647
G1 X173.198 Y128.866 E62.20274
G1 X172.55 Y129.317 E62.229
G1 X171.859 Y129.701 E62.2553
G1 X171.134 Y130.013 E62.28155
G1 X170.381 Y130.25 E62.3078
G1 X169.607 Y130.409 E62.33409
G1 X168.822 Y130.49 E62.36033
G1 X168.42 Y130.5 E62.37371
G1 X51.58 Y130.5 E66.25982
G1 X50.791 Y130.46 E66.2861
G1 X50.011 Y130.341 E66.31234
G1 X49.246 Y130.143 E66.33862
G1 X48.506 Y129.869 E66.36487
G1 X47.797 Y129.521 E66.39114
G1 X47.126 Y129.103 E66.41743
G1 X46.502 Y128.62 E66.44368
G1 X45.929 Y128.077 E66.46993
G1 X45.414 Y127.478 E66.49621
G1 X44.963 Y126.83 E66.52247
G1 X44.579 Y126.139 E66.54876
G1 X44.267 Y125.414 E66.57501
G1 X44.03 Y124.661 E66.60127
G1 X43.871 Y123.887 E66.62755
G1 X43.79 Y123.102 E66.6538
G1 X43.78 Y122.7 E66.66717
G1 X43.78 Y97.3 E67.51198
G1 X43.82 Y96.511 E67.53825
G1 X43.939 Y95.731 E67.5645
G1 X44.137 Y94.966 E67.59078
G1 X44.411 Y94.226 E67.61702
G1 X44.759 Y93.517 E67.64329
G1 X45.177 Y92.846 E67.66959
G1 X45.66 Y92.222 E67.69583
G1 X46.203 Y91.649 E67.72209
G1 X46.802 Y91.134 E67.74836
G1 X47.45 Y90.683 E67.77462
G1 X48.141 Y90.299 E67.80091
G0 F6000 X47.833 Y90.919
G1 F1200 X48.516 Y90.564 E67.82652
G1 X49.231 Y90.283 E67.85207
G1 X49.973 Y90.077 E67.87768
G1 X50.731 Y89.949 E67.90325
G1 X51.58 Y89.9 E67.93153
G1 X168.42 Y89.9 E71.81765
G1 X169.188 Y89.94 E71.84323
G1 X169.948 Y90.059 E71.86881
G1 X170.691 Y90.257 E71.89439
G1 X171.41 Y90.531 E71.91998
G1 X172.096 Y90.878 E71.94555
G1 X172.743 Y91.294 E71.97113
G1 X173.343 Y91.775 E71.99671
G1 X173.89 Y92.316 E72.0223
G1 X174.378 Y92.911 E72.04789
G1 X174.801 Y93.553 E72.07346
G1 X175.156 Y94.236 E72.09906
G1 X175.437 Y94.951 E72.12462
G1 X175.643 Y95.693 E72.15023
G1 X175.771 Y96.451 E72.1758
G1 X175.82 Y97.3 E72.20408
G1 X175.82 Y122.7 E73.04889
G1 X175.78 Y123.468 E73.07447
G1 X175.661 Y124.228 E73.10005
G1 X175.463 Y124.971 E73.12563
G1 X175.189 Y125.69 E73.15122
G1 X174.842 Y126.376 E73.17679
G1 X174.426 Y127.023 E73.20237
G1 X173.945 Y127.623 E73.22795
G1 X173.404 Y128.17 E73.25354
G1 X172.809 Y128.658 E73.27913
G1 X172.167 Y129.081 E73.3047
G1 X171.484 Y129.436 E73.33031
G1 X170.769 Y129.717 E73.35586
G1 X170.027 Y129.923 E73.38147
G1 X169.269 Y130.051 E73.40704
G1 X168.42 Y130.1 E73.43532
G1 X51.58 Y130.1 E77.32144
G1 X50.812 Y130.06 E77.34701
G1 X50.052 Y129.941 E77.3726
G1 X49.309 Y129.743 E77.39818
G1 X48.59 Y129.469 E77.42377
G1 X47.904 Y129.122 E77.44934
G1 X47.257 Y128.706 E77.47492
G1 X46.657 Y128.225 E77.5005
G1 X46.11 Y127.684 E77.52609
G1 X45.622 Y127.089 E77.55168
G1 X45.199 Y126.447 E77.57725
G1 X44.844 Y125.764 E77.60285
G1 X44.563 Y125.049 E77.6284
G1 X44.357 Y124.307 E77.65402
G1 X44.229 Y123.549 E77.67959
G1 X44.18 Y122.7 E77.70787
G1 X44.18 Y97.3 E78.55268
G1 X44.22 Y96.532 E78.57826
G1 X44.339 Y95.772 E78.60384
G1 X44.537 Y95.029 E78.62942
G1 X44.811 Y94.31 E78.65501
G1 X45.158 Y93.624 E78.68058
G1 X45.574 Y92.977 E78.70616
G1 X46.055 Y92.377 E78.73174
G1 X46.596 Y91.83 E78.75733
G1 X47.191 Y91.342 E78.78292
G1 X47.833 Y90.919 E78.80849
G0 F6000 X48.214 Y91.162
G1 F1200 X48.888 Y90.838 E78.83337
G1 X49.593 Y90.588 E78.85824
G1 X50.321 Y90.414 E78.88314
G1 X51.063 Y90.319 E78.90802
G1 X51.58 Y90.3 E78.92523
G1 X168.42 Y90.3 E82.81134
G1 X169.167 Y90.34 E82.83622
G1 X169.905 Y90.459 E82.86109
G1 X170.627 Y90.657 E82.88599
G1 X171.323 Y90.93 E82.91085
G1 X171.986 Y91.277 E82.93574
G1 X172.609 Y91.692 E82.96064
G1 X173.183 Y92.171 E82.9855
G1 X173.704 Y92.708 E83.01039
G1 X174.163 Y93.298 E83.03525
G1 X174.558 Y93.934 E83.06015
G1 X174.882 Y94.608 E83.08503
G1 X175.132 Y95.313 E83.10991
G1 X175.306 Y96.041 E83.1348
G1 X175.401 Y96.783 E83.15968
G1 X175.42 Y97.3 E83.17689
G1 X175.42 Y122.7 E84.0217
G1 X175.38 Y123.447 E84.04658
G1 X175.261 Y124.185 E84.07144
G1 X175.063 Y124.907 E84.09634
