;FLAVOR:Marlin
;TIME:16604
;Filament used: 11.446m
;Layer height: 0.2
;MINX:41.78
;MINY:61.222
;MINZ:0.2
;MAXX:178.22
;MAXY:158.778
;MAXZ:8.8
;Generated with Cura_SteamEngine 4.11.0
M140 S50
M105
M190 S50
M104 S200
M105
M109 S200
M82 ;absolute extrusion mode
; Ender 3 Custom Start G-code
G92 E0 ; Reset Extruder
G28 ; Home all axes
G29 ; Auto bed-level (BL-Touch)
G1 Z2.0 F3000 ; Move Z Axis up little to prevent scratching of Heat Bed
G1 X0.1 Y20 Z0.3 F5000.0 ; Move to start position
G1 X0.1 Y200.0 Z0.3 F1500.0 E15 ; Draw the first line
G1 X0.4 Y200.0 Z0.3 F5000.0 ; Move to side a little
G1 X0.4 Y20 Z0.3 F1500.0 E30 ; Draw the second line
G92 E0 ; Reset Extruder
G1 Z2.0 F3000 ; Move Z Axis up little to prevent scratching of Heat Bed
G1 X5 Y20 Z0.3 F5000.0 ; Move over to prevent blob squish
G92 E0
G92 E0
G1 F2700 E-5
;LAYER_COUNT:44
;LAYER:0
M107
G0 F6000 X45.516 Y63.324 Z0.2
;TYPE:SKIRT
G1 F2700 E0
G1 F1200 X46.235 Y62.808 E0.02944
G1 X46.998 Y62.359 E0.05888
G1 X47.799 Y61.981 E0.08834
G1 X48.63 Y61.677 E0.11777
G1 X49.485 Y61.449 E0.1472
G1 X50.358 Y61.299 E0.17666
G1 X51.58 Y61.222 E0.21739
G1 X168.42 Y61.222 E4.1035
G1 X169.304 Y61.262 E4.13293
G1 X170.181 Y61.382 E4.16237
G1 X171.044 Y61.58 E4.19182
G1 X171.885 Y61.855 E4.22125
G1 X172.698 Y62.205 E4.25069
G1 X173.477 Y62.627 E4.28016
G1 X174.213 Y63.118 E4.30959
G1 X174.903 Y63.673 E4.33904
G1 X175.54 Y64.288 E4.36849
G1 X176.118 Y64.958 E4.39792
G1 X176.634 Y65.677 E4.42735
G1 X177.083 Y66.44 E4.4568
G1 X177.461 Y67.241 E4.48626
G1 X177.765 Y68.072 E4.51569
G1 X177.993 Y68.927 E4.54512
G1 X178.143 Y69.8 E4.57458
G1 X178.22 Y71.022 E4.61531
G1 X178.22 Y148.978 E7.20813
G1 X178.18 Y149.862 E7.23757
G1 X178.06 Y150.739 E7.26701
G1 X177.862 Y151.602 E7.29646
G1 X177.587 Y152.443 E7.32588
G1 X177.237 Y153.256 E7.35532
G1 X176.815 Y154.035 E7.38479
G1 X176.324 Y154.771 E7.41422
G1 X175.769 Y155.461 E7.44367
G1 X175.154 Y156.098 E7.47312
G1 X174.484 Y156.676 E7.50255
G1 X173.765 Y157.192 E7.53199
G1 X173.002 Y157.641 E7.56143
G1 X172.201 Y158.019 E7.59089
G1 X171.37 Y158.323 E7.62032
G1 X170.515 Y158.551 E7.64975
G1 X169.642 Y158.701 E7.67921
G1 X168.42 Y158.778 E7.71994
G1 X51.58 Y158.778 E11.60605
G1 X50.696 Y158.738 E11.63548
G1 X49.819 Y158.618 E11.66493
G1 X48.956 Y158.42 E11.69437
G1 X48.115 Y158.145 E11.7238
G1 X47.302 Y157.795 E11.75324
G1 X46.523 Y157.373 E11.78271
G1 X45.787 Y156.882 E11.81214
G1 X45.097 Y156.327 E11.84159
G1 X44.46 Y155.712 E11.87104
G1 X43.882 Y155.042 E11.90047
G1 X43.366 Y154.323 E11.92991
G1 X42.917 Y153.56 E11.95935
G1 X42.539 Y152.759 E11.98881
G1 X42.235 Y151.928 E12.01824
G1 X42.007 Y151.073 E12.04767
G1 X41.857 Y150.2 E12.07713
G1 X41.78 Y148.978 E12.11786
G1 X41.78 Y71.022 E14.71068
G1 X41.82 Y70.138 E14.74012
G1 X41.94 Y69.261 E14.76956
G1 X42.138 Y68.398 E14.79901
G1 X42.413 Y67.557 E14.82844
G1 X42.763 Y66.744 E14.85788
G1 X43.185 Y65.965 E14.88734
G1 X43.676 Y65.229 E14.91677
G1 X44.231 Y64.539 E14.94622
G1 X44.846 Y63.902 E14.97567
G1 X45.516 Y63.324 E15.0051
G0 F6000 X45.905 Y63.528
G1 F1200 X46.619 Y63.038 E15.0339
G1 X47.376 Y62.614 E15.06276
G1 X48.169 Y62.263 E15.09161
G1 X48.99 Y61.986 E15.12043
G1 X49.834 Y61.786 E15.14927
G1 X50.692 Y61.664 E15.1781
G1 X51.58 Y61.622 E15.20767
G1 X168.42 Y61.622 E19.09378
G1 X169.286 Y61.662 E19.12261
G1 X170.145 Y61.782 E19.15146
G1 X170.989 Y61.98 E19.1803
G1 X171.811 Y62.255 E19.20913
G1 X172.604 Y62.605 E19.23796
G1 X173.362 Y63.026 E19.26679
G1 X174.077 Y63.515 E19.2956
G1 X174.745 Y64.068 E19.32445
G1 X175.359 Y64.681 E19.35331
G1 X175.914 Y65.347 E19.38214
G1 X176.404 Y66.061 E19.41094
G1 X176.828 Y66.818 E19.4398
G1 X177.179 Y67.611 E19.46864
G1 X177.456 Y68.432 E19.49746
G1 X177.656 Y69.276 E19.52631
G1 X177.778 Y70.134 E19.55514
G1 X177.82 Y71.022 E19.5847
G1 X177.82 Y148.978 E22.17753
G1 X177.78 Y149.844 E22.20636
G1 X177.66 Y150.703 E22.23521
G1 X177.462 Y151.547 E22.26405
G1 X177.187 Y152.369 E22.29288
G1 X176.837 Y153.162 E22.32171
G1 X176.416 Y153.92 E22.35054
G1 X175.927 Y154.635 E22.37935
G1 X175.374 Y155.303 E22.4082
G1 X174.761 Y155.917 E22.43706
G1 X174.095 Y156.472 E22.46589
G1 X173.381 Y156.962 E22.49469
G1 X172.624 Y157.386 E22.52355
G1 X171.831 Y157.737 E22.55239
G1 X171.01 Y158.014 E22.58121
G1 X170.166 Y158.214 E22.61006
G1 X169.308 Y158.336 E22.63889
G1 X168.42 Y158.378 E22.66845
G1 X51.58 Y158.378 E26.55457
G1 X50.714 Y158.338 E26.5834
G1 X49.855 Y158.218 E26.61225
G1 X49.011 Y158.02 E26.64108
G1 X48.189 Y157.745 E26.66991
G1 X47.396 Y157.395 E26.69874
G1 X46.638 Y156.974 E26.72758
G1 X45.923 Y156.485 E26.75639
G1 X45.255 Y155.932 E26.78524
G1 X44.641 Y155.319 E26.81409
G1 X44.086 Y154.653 E26.84293
G1 X43.596 Y153.939 E26.87173
G1 X43.172 Y153.182 E26.90059
G1 X42.821 Y152.389 E26.92943
G1 X42.544 Y151.568 E26.95825
G1 X42.344 Y150.724 E26.9871
G1 X42.222 Y149.866 E27.01592
G1 X42.18 Y148.978 E27.04549
G1 X42.18 Y71.022 E29.63832
G1 X42.22 Y70.156 E29.66715
G1 X42.34 Y69.297 E29.696
G1 X42.538 Y68.453 E29.72483
G1 X42.813 Y67.631 E29.75366
G1 X43.163 Y66.838 E29.78249
G1 X43.584 Y66.08 E29.81133
G1 X44.073 Y65.365 E29.84014
G1 X44.626 Y64.697 E29.86899
G1 X45.239 Y64.083 E29.89784
G1 X45.905 Y63.528 E29.92668
G0 F6000 X46.293 Y63.739
G1 F1200 X47.002 Y63.273 E29.9549
G1 X47.752 Y62.877 E29.9831
G1 X48.536 Y62.552 E30.01133
G1 X49.347 Y62.303 E30.03955
G1 X50.178 Y62.132 E30.06777
G1 X51.021 Y62.039 E30.09598
G1 X51.58 Y62.022 E30.11458
G1 X168.42 Y62.022 E34.00069
G1 X169.267 Y62.062 E34.02889
G1 X170.107 Y62.182 E34.05712
G1 X170.932 Y62.38 E34.08533
G1 X171.735 Y62.655 E34.11357
G1 X172.508 Y63.004 E34.14177
G1 X173.244 Y63.424 E34.16996
G1 X173.938 Y63.912 E34.19818
G1 X174.583 Y64.463 E34.22639
G1 X175.173 Y65.073 E34.25462
G1 X175.703 Y65.735 E34.28282
G1 X176.169 Y66.444 E34.31104
G1 X176.565 Y67.194 E34.33925
G1 X176.89 Y67.978 E34.36748
G1 X177.139 Y68.789 E34.3957
G1 X177.31 Y69.62 E34.42391
G1 X177.403 Y70.463 E34.45212
G1 X177.42 Y71.022 E34.47072
G1 X177.42 Y148.978 E37.06355
G1 X177.38 Y149.825 E37.09175
G1 X177.26 Y150.665 E37.11998
G1 X177.062 Y151.49 E37.14819
G1 X176.787 Y152.293 E37.17642
G1 X176.438 Y153.066 E37.20463
G1 X176.018 Y153.802 E37.23282
G1 X175.53 Y154.496 E37.26104
G1 X174.979 Y155.141 E37.28925
G1 X174.369 Y155.731 E37.31748
G1 X173.707 Y156.261 E37.34568
G1 X172.998 Y156.727 E37.3739
G1 X172.248 Y157.123 E37.40211
G1 X171.464 Y157.448 E37.43034
G1 X170.653 Y157.697 E37.45855
G1 X169.822 Y157.868 E37.48677
G1 X168.979 Y157.961 E37.51498
G1 X168.42 Y157.978 E37.53358
G1 X51.58 Y157.978 E41.4197
G1 X50.733 Y157.938 E41.4479
G1 X49.893 Y157.818 E41.47612
G1 X49.068 Y157.62 E41.50434
G1 X48.265 Y157.345 E41.53257
G1 X47.492 Y156.996 E41.56078
G1 X46.756 Y156.576 E41.58896
G1 X46.062 Y156.088 E41.61718
G1 X45.417 Y155.537 E41.6454
G1 X44.827 Y154.927 E41.67362
G1 X44.297 Y154.265 E41.70183
G1 X43.831 Y153.556 E41.73005
G1 X43.435 Y152.806 E41.75826
G1 X43.11 Y152.022 E41.78648
G1 X42.861 Y151.211 E41.8147
G1 X42.69 Y150.38 E41.84292
G1 X42.597 Y149.537 E41.87113
G1 X42.58 Y148.978 E41.88973
G1 X42.58 Y71.022 E44.48256
G1 X42.62 Y70.175 E44.51076
G1 X42.74 Y69.335 E44.53898
G1 X42.938 Y68.51 E44.5672
G1 X43.213 Y67.707 E44.59543
G1 X43.562 Y66.934 E44.62364
G1 X43.982 Y66.198 E44.65182
G1 X44.47 Y65.504 E44.68004
G1 X45.021 Y64.859 E44.70826
G1 X45.631 Y64.269 E44.73648
G1 X46.293 Y63.739 E44.76469
G0 F6000 X46.022 Y64.459
G1 F1200 X46.68 Y63.954 E44.79228
G1 X47.383 Y63.515 E44.81984
G1 X48.126 Y63.146 E44.84743
G1 X48.901 Y62.85 E44.87503
G1 X49.7 Y62.63 E44.90259
G1 X50.517 Y62.488 E44.93017
G1 X51.58 Y62.422 E44.9656
G1 X168.42 Y62.422 E48.85171
G1 X169.248 Y62.462 E48.87928
G1 X170.069 Y62.582 E48.90688
G1 X170.874 Y62.78 E48.93445
G1 X171.656 Y63.054 E48.96201
G1 X172.409 Y63.403 E48.98961
G1 X173.124 Y63.823 E49.01719
G1 X173.795 Y64.309 E49.04475
G1 X174.417 Y64.858 E49.07234
G1 X174.983 Y65.464 E49.09992
G1 X175.488 Y66.122 E49.12751
G1 X175.927 Y66.825 E49.15508
G1 X176.296 Y67.568 E49.18267
G1 X176.592 Y68.343 E49.21026
G1 X176.812 Y69.142 E49.23783
G1 X176.954 Y69.959 E49.26541
G1 X177.02 Y71.022 E49.30083
G1 X177.02 Y148.978 E51.89366
G1 X176.98 Y149.806 E51.92123
G1 X176.86 Y150.627 E51.94883
G1 X176.662 Y151.432 E51.9764
G1 X176.388 Y152.214 E52.00396
G1 X176.039 Y152.967 E52.03156
G1 X175.619 Y153.682 E52.05914
G1 X175.133 Y154.353 E52.0867
G1 X174.584 Y154.975 E52.11429
G1 X173.978 Y155.541 E52.14187
G1 X173.32 Y156.046 E52.16946
G1 X172.617 Y156.485 E52.19703
G1 X171.874 Y156.854 E52.22462
G1 X171.099 Y157.15 E52.25221
G1 X170.3 Y157.37 E52.27978
G1 X169.483 Y157.512 E52.30736
G1 X168.42 Y157.578 E52.34278
G1 X51.58 Y157.578 E56.22889
G1 X50.752 Y157.538 E56.25647
G1 X49.931 Y157.418 E56.28406
G1 X49.126 Y157.22 E56.31164
G1 X48.344 Y156.946 E56.3392
G1 X47.591 Y156.597 E56.3668
G1 X46.876 Y156.177 E56.39438
G1 X46.205 Y155.691 E56.42194
G1 X45.583 Y155.142 E56.44953
G1 X45.017 Y154.536 E56.47711
G1 X44.512 Y153.878 E56.5047
G1 X44.073 Y153.175 E56.53226
G1 X43.704 Y152.432 E56.55986
G1 X43.408 Y151.657 E56.58745
G1 X43.188 Y150.858 E56.61501
G1 X43.046 Y150.041 E56.64259
G1 X42.98 Y148.978 E56.67802
G1 X42.98 Y71.022 E59.27084
G1 X43.02 Y70.194 E59.29842
G1 X43.14 Y69.373 E59.32601
G1 X43.338 Y68.568 E59.35358
G1 X43.612 Y67.786 E59.38114
G1 X43.961 Y67.033 E59.40875
G1 X44.381 Y66.318 E59.43633
G1 X44.867 Y65.647 E59.46389
G1 X45.416 Y65.025 E59.49148
G1 X46.022 Y64.459 E59.51906
G0 F6000 X46.413 Y64.655
G1 F1200 X47.066 Y64.176 E59.54599
G1 X47.763 Y63.765 E59.57291
G1 X48.497 Y63.423 E59.59984
G1 X49.262 Y63.157 E59.62678
G1 X50.049 Y62.966 E59.65371
G1 X50.851 Y62.854 E59.68065
G1 X51.58 Y62.822 E59.70492
G1 X168.42 Y62.822 E63.59103
G1 X169.229 Y62.862 E63.61797
G1 X170.03 Y62.982 E63.64491
G1 X170.815 Y63.179 E63.67183
G1 X171.576 Y63.454 E63.69874
G1 X172.307 Y63.802 E63.72567
G1 X173.001 Y64.221 E63.75263
G1 X173.649 Y64.706 E63.77955
G1 X174.246 Y65.252 E63.80646
G1 X174.787 Y65.855 E63.83341
G1 X175.266 Y66.508 E63.86034
G1 X175.677 Y67.205 E63.88725
G1 X176.019 Y67.939 E63.91419
G1 X176.285 Y68.704 E63.94113
G1 X176.476 Y69.491 E63.96806
G1 X176.588 Y70.293 E63.99499
G1 X176.62 Y71.022 E64.01926
G1 X176.62 Y148.978 E66.61209
G1 X176.58 Y149.787 E66.63903
G1 X176.46 Y150.588 E66.66597
G1 X176.263 Y151.373 E66.69289
G1 X175.988 Y152.134 E66.7198
G1 X175.64 Y152.865 E66.74673
G1 X175.221 Y153.559 E66.77369
G1 X174.736 Y154.207 E66.80061
G1 X174.19 Y154.804 E66.82752
G1 X173.587 Y155.345 E66.85447
G1 X172.934 Y155.824 E66.8814
G1 X172.237 Y156.235 E66.90832
G1 X171.503 Y156.577 E66.93525
G1 X170.738 Y156.843 E66.96219
G1 X169.951 Y157.034 E66.98912
G1 X169.149 Y157.146 E67.01606
G1 X168.42 Y157.178 E67.04033
G1 X51.58 Y157.178 E70.92644
G1 X50.771 Y157.138 E70.95338
G1 X49.97 Y157.018 E70.98032
G1 X49.185 Y156.821 E71.00724
G1 X48.424 Y156.546 E71.03415
G1 X47.693 Y156.198 E71.06108
G1 X46.999 Y155.779 E71.08804
G1 X46.351 Y155.294 E71.11496
G1 X45.754 Y154.748 E71.14187
G1 X45.213 Y154.145 E71.16881
G1 X44.734 Y153.492 E71.19575
G1 X44.323 Y152.795 E71.22266
G1 X43.981 Y152.061 E71.2496
G1 X43.715 Y151.296 E71.27653
G1 X43.524 Y150.509 E71.30347
G1 X43.412 Y149.707 E71.3304
G1 X43.38 Y148.978 E71.35467
G1 X43.38 Y71.022 E73.9475
G1 X43.42 Y70.213 E73.97444
G1 X43.54 Y69.412 E74.00138
G1 X43.737 Y68.627 E74.0283
G1 X44.012 Y67.866 E74.05521
G1 X44.36 Y67.135 E74.08214
G1 X44.779 Y66.441 E74.1091
G1 X45.264 Y65.793 E74.13602
G1 X45.81 Y65.196 E74.16293
G1 X46.413 Y64.655 E74.18988
G0 F6000 X46.802 Y64.856
G1 F1200 X47.45 Y64.405 E74.21613
G1 X48.141 Y64.021 E74.24243
G1 X48.866 Y63.709 E74.26868
G1 X49.619 Y63.472 E74.29494
G1 X50.393 Y63.313 E74.32122
G1 X51.178 Y63.232 E74.34746
G1 X51.58 Y63.222 E74.36084
G1 X168.42 Y63.222 E78.24695
G1 X169.209 Y63.262 E78.27323
G1 X169.989 Y63.381 E78.29947
G1 X170.754 Y63.579 E78.32575
G1 X171.494 Y63.853 E78.352
G1 X172.203 Y64.201 E78.37827
G1 X172.874 Y64.619 E78.40456
G1 X173.498 Y65.102 E78.43081
G1 X174.071 Y65.645 E78.45706
G1 X174.586 Y66.244 E78.48334
G1 X175.037 Y66.892 E78.5096
G1 X175.421 Y67.583 E78.53589
G1 X175.733 Y68.308 E78.56214
G1 X175.97 Y69.061 E78.5884
G1 X176.129 Y69.835 E78.61468
G1 X176.21 Y70.62 E78.64093
G1 X176.22 Y71.022 E78.6543
G1 X176.22 Y148.978 E81.24713
G1 X176.18 Y149.767 E81.2734
G1 X176.061 Y150.547 E81.29965
G1 X175.863 Y151.312 E81.32593
G1 X175.589 Y152.052 E81.35218
G1 X175.241 Y152.761 E81.37844
G1 X174.823 Y153.432 E81.40474
G1 X174.34 Y154.056 E81.43098
G1 X173.797 Y154.629 E81.45724
G1 X173.198 Y155.144 E81.48351
G1 X172.55 Y155.595 E81.50977
G1 X171.859 Y155.979 E81.53606
G1 X171.134 Y156.291 E81.56232
G1 X170.381 Y156.528 E81.58857
G1 X169.607 Y156.687 E81.61485
G1 X168.822 Y156.768 E81.6411
G1 X168.42 Y156.778 E81.65448
G1 X51.58 Y156.778 E85.54059
G1 X50.791 Y156.738 E85.56687
G1 X50.011 Y156.619 E85.59311
G1 X49.246 Y156.421 E85.61939
G1 X48.506 Y156.147 E85.64564
G1 X47.797 Y155.799 E85.67191
G1 X47.126 Y155.381 E85.6982
G1 X46.502 Y154.898 E85.72445
G1 X45.929 Y154.355 E85.7507
G1 X45.414 Y153.756 E85.77698
G1 X44.963 Y153.108 E85.80323
G1 X44.579 Y152.417 E85.82953
G1 X44.267 Y151.692 E85.85578
G1 X44.03 Y150.939 E85.88203
G1 X43.871 Y150.165 E85.90832
G1 X43.79 Y149.38 E85.93456
G1 X43.78 Y148.978 E85.94794
G1 X43.78 Y71.022 E88.54077
G1 X43.82 Y70.233 E88.56704
G1 X43.939 Y69.453 E88.59328
G1 X44.137 Y68.688 E88.61957
G1 X44.411 Y67.948 E88.64581
G1 X44.759 Y67.239 E88.67208
G1 X45.177 Y66.568 E88.69837
G1 X45.66 Y65.944 E88.72462
G1 X46.203 Y65.371 E88.75088
G1 X46.802 Y64.856 E88.77715
G0 F6000 X47.191 Y65.064
G1 F1200 X47.833 Y64.641 E88.80272
G1 X48.516 Y64.286 E88.82832
G1 X49.231 Y64.005 E88.85388
G1 X49.973 Y63.799 E88.87949
G1 X50.731 Y63.671 E88.90506
G1 X51.58 Y63.622 E88.93334
G1 X168.42 Y63.622 E92.81945
G1 X169.188 Y63.662 E92.84503
G1 X169.948 Y63.781 E92.87062
G1 X170.691 Y63.979 E92.89619
G1 X171.41 Y64.253 E92.92179
G1 X172.096 Y64.6 E92.94735
G1 X172.743 Y65.016 E92.97294
G1 X173.343 Y65.497 E92.99852
G1 X173.89 Y66.038 E93.0241
G1 X174.378 Y66.633 E93.0497
G1 X174.801 Y67.275 E93.07527
G1 X175.156 Y67.958 E93.10087
G1 X175.437 Y68.673 E93.12642
G1 X175.643 Y69.415 E93.15204
G1 X175.771 Y70.173 E93.1776
G1 X175.82 Y71.022 E93.20589
G1 X175.82 Y148.978 E95.79872
G1 X175.78 Y149.746 E95.82429
G1 X175.661 Y150.506 E95.84988
G1 X175.463 Y151.249 E95.87545
G1 X175.189 Y151.968 E95.90105
G1 X174.842 Y152.654 E95.92662
G1 X174.426 Y153.301 E95.9522
G1 X173.945 Y153.901 E95.97778
G1 X173.404 Y154.448 E96.00336
G1 X172.809 Y154.936 E96.02896
G1 X172.167 Y155.359 E96.05453
G1 X171.484 Y155.714 E96.08013
G1 X170.769 Y155.995 E96.10568
G1 X170.027 Y156.201 E96.1313
G1 X169.269 Y156.329 E96.15686
G1 X168.42 Y156.378 E96.18515
G1 X51.58 Y156.378 E100.07126
G1 X50.812 Y156.338 E100.09684
G1 X50.052 Y156.219 E100.12243
G1 X49.309 Y156.021 E100.148
G1 X48.59 Y155.747 E100.17359
G1 X47.904 Y155.4 E100.19916
G1 X47.257 Y154.984 E100.22475
G1 X46.657 Y154.503 E100.25032
G1 X46.11 Y153.962 E100.27591
G1 X45.622 Y153.367 E100.30151
G1 X45.199 Y152.725 E100.32708
G1 X44.844 Y152.042 E100.35268
G1 X44.563 Y151.327 E100.37823
G1 X44.357 Y150.585 E100.40384
G1 X44.229 Y149.827 E100.42941
G1 X44.18 Y148.978 E100.4577
G1 X44.18 Y71.022 E103.05052
G1 X44.22 Y70.254 E103.0761
G1 X44.339 Y69.494 E103.10169
G1 X44.537 Y68.751 E103.12726
G1 X44.811 Y68.032 E103.15285
G1 X45.158 Y67.346 E103.17842
G1 X45.574 Y66.699 E103.20401
G1 X46.055 Y66.099 E103.22958
G1 X46.596 Y65.552 E103.25517
G1 X47.191 Y65.064 E103.28077
G0 F6000 X46.988 Y65.738
G1 F1200 X47.578 Y65.279 E103.30563
G1 X48.214 Y64.884 E103.33053
G1 X48.888 Y64.56 E103.3554
G1 X49.593 Y64.31 E103.38028
G1 X50.321 Y64.136 E103.40518
G1 X51.063 Y64.041 E103.43006
G1 X51.58 Y64.022 E103.44727
G1 X168.42 Y64.022 E107.33338
G1 X169.167 Y64.062 E107.35826
G1 X169.905 Y64.181 E107.38312
G1 X170.627 Y64.379 E107.40802
G1 X171.323 Y64.652 E107.43289
G1 X171.986 Y64.999 E107.45778
G1 X172.609 Y65.414 E107.48268
G1 X173.183 Y65.893 E107.50754
G1 X173.704 Y66.43 E107.53243
G1 X174.163 Y67.02 E107.55729
G1 X174.558 Y67.656 E107.58219
