;FLAVOR:Marlin
;TIME:13320
;Filament used: 9.68527m
;Layer height: 0.2
;MINX:40.986
;MINY:90.675
;MINZ:0.2
;MAXX:179.014
;MAXY:129.325
;MAXZ:10.4
;Generated with Cura_SteamEngine 4.11.0
M140 S50
M105
M190 S50
M104 S200
M105
M109 S200
M82 ;absolute extrusion mode
; Ender 3 Custom Start G-code
G92 E0 ; Reset Extruder
G28 ; Home all axes
G29 ; Auto bed-level (BL-Touch)
G1 Z2.0 F3000 ; Move Z Axis up little to prevent scratching of Heat Bed
G1 X0.1 Y20 Z0.3 F5000.0 ; Move to start position
G1 X0.1 Y200.0 Z0.3 F1500.0 E15 ; Draw the first line
G1 X0.4 Y200.0 Z0.3 F5000.0 ; Move to side a little
G1 X0.4 Y20 Z0.3 F1500.0 E30 ; Draw the second line
G92 E0 ; Reset Extruder
G1 Z2.0 F3000 ; Move Z Axis up little to prevent scratching of Heat Bed
G1 X5 Y20 Z0.3 F5000.0 ; Move over to prevent blob squish
G92 E0
G92 E0
G1 F2700 E-5
;LAYER_COUNT:52
;LAYER:0
M107
G0 F6000 X46.204 Y91.812 Z0.2
;TYPE:SKIRT
G1 F2700 E0
G1 F1200 X47.005 Y91.434 E0.02946
G1 X47.836 Y91.13 E0.05889
G1 X48.691 Y90.902 E0.08832
G1 X49.564 Y90.752 E0.11778
G1 X50.786 Y90.675 E0.15851
G1 X169.214 Y90.675 E4.09744
G1 X170.098 Y90.715 E4.12687
G1 X170.975 Y90.835 E4.15631
G1 X171.838 Y91.033 E4.18576
G1 X172.679 Y91.308 E4.21519
G1 X173.492 Y91.658 E4.24463
G1 X174.271 Y92.08 E4.2741
G1 X175.007 Y92.571 E4.30352
G1 X175.697 Y93.126 E4.33298
G1 X176.334 Y93.741 E4.36242
G1 X176.912 Y94.411 E4.39186
G1 X177.428 Y95.13 E4.42129
G1 X177.877 Y95.893 E4.45074
G1 X178.255 Y96.694 E4.4802
G1 X178.559 Y97.525 E4.50963
G1 X178.787 Y98.38 E4.53906
G1 X178.937 Y99.253 E4.56852
G1 X179.014 Y100.475 E4.60924
G1 X179.014 Y119.525 E5.24285
G1 X178.974 Y120.409 E5.27228
G1 X178.854 Y121.286 E5.30172
G1 X178.656 Y122.149 E5.33117
G1 X178.381 Y122.99 E5.3606
G1 X178.031 Y123.803 E5.39004
G1 X177.609 Y124.582 E5.41951
G1 X177.118 Y125.318 E5.44893
G1 X176.563 Y126.008 E5.47839
G1 X175.948 Y126.645 E5.50784
G1 X175.278 Y127.223 E5.53727
G1 X174.559 Y127.739 E5.5667
G1 X173.796 Y128.188 E5.59615
G1 X172.995 Y128.566 E5.62561
G1 X172.164 Y128.87 E5.65504
G1 X171.309 Y129.098 E5.68447
G1 X170.436 Y129.248 E5.71393
G1 X169.214 Y129.325 E5.75465
G1 X50.786 Y129.325 E9.69358
G1 X49.902 Y129.285 E9.72302
G1 X49.025 Y129.165 E9.75246
G1 X48.162 Y128.967 E9.78191
G1 X47.321 Y128.692 E9.81134
G1 X46.508 Y128.342 E9.84078
G1 X45.729 Y127.92 E9.87024
G1 X44.993 Y127.429 E9.89967
G1 X44.303 Y126.874 E9.92912
G1 X43.666 Y126.259 E9.95857
G1 X43.088 Y125.589 E9.988
G1 X42.572 Y124.87 E10.01744
G1 X42.123 Y124.107 E10.04688
G1 X41.745 Y123.306 E10.07634
G1 X41.441 Y122.475 E10.10577
G1 X41.213 Y121.62 E10.1352
G1 X41.063 Y120.747 E10.16467
G1 X40.986 Y119.525 E10.20539
G1 X40.986 Y100.475 E10.839
G1 X41.026 Y99.591 E10.86843
G1 X41.146 Y98.714 E10.89787
G1 X41.344 Y97.851 E10.92732
G1 X41.619 Y97.01 E10.95675
G1 X41.969 Y96.197 E10.98619
G1 X42.391 Y95.418 E11.01565
G1 X42.882 Y94.682 E11.04508
G1 X43.437 Y93.992 E11.07453
G1 X44.052 Y93.355 E11.10398
G1 X44.722 Y92.777 E11.13341
G1 X45.441 Y92.261 E11.16285
G1 X46.204 Y91.812 E11.19229
G0 F6000 X46.582 Y92.067
G1 F1200 X47.375 Y91.716 E11.22114
G1 X48.196 Y91.439 E11.24996
G1 X49.04 Y91.239 E11.2788
G1 X49.898 Y91.117 E11.30763
G1 X50.786 Y91.075 E11.3372
G1 X169.214 Y91.075 E15.27613
G1 X170.08 Y91.115 E15.30496
G1 X170.939 Y91.235 E15.33381
G1 X171.783 Y91.433 E15.36264
G1 X172.605 Y91.708 E15.39147
G1 X173.398 Y92.058 E15.4203
G1 X174.156 Y92.479 E15.44914
G1 X174.871 Y92.968 E15.47795
G1 X175.539 Y93.521 E15.5068
G1 X176.153 Y94.134 E15.53565
G1 X176.708 Y94.8 E15.56449
G1 X177.198 Y95.514 E15.59329
G1 X177.622 Y96.271 E15.62215
G1 X177.973 Y97.064 E15.65099
G1 X178.25 Y97.885 E15.67981
G1 X178.45 Y98.729 E15.70866
G1 X178.572 Y99.587 E15.73748
G1 X178.614 Y100.475 E15.76705
G1 X178.614 Y119.525 E16.40066
G1 X178.574 Y120.391 E16.42949
G1 X178.454 Y121.25 E16.45834
G1 X178.256 Y122.094 E16.48717
G1 X177.981 Y122.916 E16.516
G1 X177.631 Y123.709 E16.54483
G1 X177.21 Y124.467 E16.57367
G1 X176.721 Y125.182 E16.60248
G1 X176.168 Y125.85 E16.63132
G1 X175.555 Y126.464 E16.66018
G1 X174.889 Y127.019 E16.68902
G1 X174.175 Y127.509 E16.71782
G1 X173.418 Y127.933 E16.74668
G1 X172.625 Y128.284 E16.77552
G1 X171.804 Y128.561 E16.80434
G1 X170.96 Y128.761 E16.83319
G1 X170.102 Y128.883 E16.86201
G1 X169.214 Y128.925 E16.89158
G1 X50.786 Y128.925 E20.83051
G1 X49.92 Y128.885 E20.85935
G1 X49.061 Y128.765 E20.88819
G1 X48.217 Y128.567 E20.91703
G1 X47.395 Y128.292 E20.94586
G1 X46.602 Y127.942 E20.97469
G1 X45.844 Y127.521 E21.00352
G1 X45.129 Y127.032 E21.03234
G1 X44.461 Y126.479 E21.06118
G1 X43.847 Y125.866 E21.09004
G1 X43.292 Y125.2 E21.11887
G1 X42.802 Y124.486 E21.14767
G1 X42.378 Y123.729 E21.17653
G1 X42.027 Y122.936 E21.20537
G1 X41.75 Y122.115 E21.23419
G1 X41.55 Y121.271 E21.26304
G1 X41.428 Y120.413 E21.29187
G1 X41.386 Y119.525 E21.32143
G1 X41.386 Y100.475 E21.95504
G1 X41.426 Y99.609 E21.98387
G1 X41.546 Y98.75 E22.01272
G1 X41.744 Y97.906 E22.04156
G1 X42.019 Y97.084 E22.07038
G1 X42.369 Y96.291 E22.09921
G1 X42.79 Y95.533 E22.12805
G1 X43.279 Y94.818 E22.15686
G1 X43.832 Y94.15 E22.18571
G1 X44.445 Y93.536 E22.21456
G1 X45.111 Y92.981 E22.2434
G1 X45.825 Y92.491 E22.2722
G1 X46.582 Y92.067 E22.30106
G0 F6000 X46.208 Y92.726
G1 F1200 X46.958 Y92.33 E22.32927
G1 X47.742 Y92.005 E22.3575
G1 X48.553 Y91.756 E22.38571
G1 X49.384 Y91.585 E22.41393
G1 X50.227 Y91.492 E22.44214
G1 X50.786 Y91.475 E22.46074
G1 X169.214 Y91.475 E26.39967
G1 X170.061 Y91.515 E26.42787
G1 X170.901 Y91.635 E26.4561
G1 X171.726 Y91.833 E26.48432
G1 X172.529 Y92.108 E26.51255
G1 X173.302 Y92.457 E26.54076
G1 X174.038 Y92.877 E26.56894
G1 X174.732 Y93.365 E26.59716
G1 X175.377 Y93.916 E26.62537
G1 X175.967 Y94.526 E26.6536
G1 X176.497 Y95.188 E26.6818
G1 X176.963 Y95.897 E26.71002
G1 X177.359 Y96.647 E26.73823
G1 X177.684 Y97.431 E26.76646
G1 X177.933 Y98.242 E26.79468
G1 X178.104 Y99.073 E26.82289
G1 X178.197 Y99.916 E26.8511
G1 X178.214 Y100.475 E26.8697
G1 X178.214 Y119.525 E27.50331
G1 X178.174 Y120.372 E27.53151
G1 X178.054 Y121.212 E27.55973
G1 X177.856 Y122.037 E27.58795
G1 X177.581 Y122.84 E27.61618
G1 X177.232 Y123.613 E27.64439
G1 X176.812 Y124.349 E27.67258
G1 X176.324 Y125.043 E27.7008
G1 X175.773 Y125.688 E27.72901
G1 X175.163 Y126.278 E27.75724
G1 X174.501 Y126.808 E27.78544
G1 X173.792 Y127.274 E27.81366
G1 X173.042 Y127.67 E27.84187
G1 X172.258 Y127.995 E27.8701
G1 X171.447 Y128.244 E27.89831
G1 X170.616 Y128.415 E27.92653
G1 X169.773 Y128.508 E27.95474
G1 X169.214 Y128.525 E27.97334
G1 X50.786 Y128.525 E31.91227
G1 X49.939 Y128.485 E31.94048
G1 X49.099 Y128.365 E31.9687
G1 X48.274 Y128.167 E31.99692
G1 X47.471 Y127.892 E32.02515
G1 X46.698 Y127.543 E32.05336
G1 X45.962 Y127.123 E32.08154
G1 X45.268 Y126.635 E32.10976
G1 X44.623 Y126.084 E32.13797
G1 X44.033 Y125.474 E32.1662
G1 X43.503 Y124.812 E32.19441
G1 X43.037 Y124.103 E32.22262
G1 X42.641 Y123.353 E32.25083
G1 X42.316 Y122.569 E32.27906
G1 X42.067 Y121.758 E32.30728
G1 X41.896 Y120.927 E32.3355
G1 X41.803 Y120.084 E32.3637
G1 X41.786 Y119.525 E32.3823
G1 X41.786 Y100.475 E33.01591
G1 X41.826 Y99.628 E33.04411
G1 X41.946 Y98.788 E33.07234
G1 X42.144 Y97.963 E33.10055
G1 X42.419 Y97.16 E33.12878
G1 X42.768 Y96.387 E33.15699
G1 X43.188 Y95.651 E33.18518
G1 X43.676 Y94.957 E33.2134
G1 X44.227 Y94.312 E33.24161
G1 X44.837 Y93.722 E33.26984
G1 X45.499 Y93.192 E33.29804
G1 X46.208 Y92.726 E33.32626
G0 F6000 X46.589 Y92.968
G1 F1200 X47.332 Y92.599 E33.35385
G1 X48.107 Y92.303 E33.38145
G1 X48.906 Y92.083 E33.40901
G1 X49.723 Y91.941 E33.43659
G1 X50.786 Y91.875 E33.47201
G1 X169.214 Y91.875 E37.41095
G1 X170.042 Y91.915 E37.43852
G1 X170.863 Y92.035 E37.46611
G1 X171.668 Y92.233 E37.49369
G1 X172.45 Y92.507 E37.52125
G1 X173.203 Y92.856 E37.54885
G1 X173.918 Y93.276 E37.57643
G1 X174.589 Y93.762 E37.60399
G1 X175.211 Y94.311 E37.63158
G1 X175.777 Y94.917 E37.65916
G1 X176.282 Y95.575 E37.68675
G1 X176.721 Y96.278 E37.71431
G1 X177.09 Y97.021 E37.74191
G1 X177.386 Y97.796 E37.7695
G1 X177.606 Y98.595 E37.79706
G1 X177.748 Y99.412 E37.82464
G1 X177.814 Y100.475 E37.86007
G1 X177.814 Y119.525 E38.49367
G1 X177.774 Y120.353 E38.52125
G1 X177.654 Y121.174 E38.54884
G1 X177.456 Y121.979 E38.57641
G1 X177.182 Y122.761 E38.60397
G1 X176.833 Y123.514 E38.63158
G1 X176.413 Y124.229 E38.65916
G1 X175.927 Y124.9 E38.68672
G1 X175.378 Y125.522 E38.71431
G1 X174.772 Y126.088 E38.74189
G1 X174.114 Y126.593 E38.76948
G1 X173.411 Y127.032 E38.79704
G1 X172.668 Y127.401 E38.82463
G1 X171.893 Y127.697 E38.85223
G1 X171.094 Y127.917 E38.87979
G1 X170.277 Y128.059 E38.90737
G1 X169.214 Y128.125 E38.9428
G1 X50.786 Y128.125 E42.88173
G1 X49.958 Y128.085 E42.9093
G1 X49.137 Y127.965 E42.9369
G1 X48.332 Y127.767 E42.96447
G1 X47.55 Y127.493 E42.99203
G1 X46.797 Y127.144 E43.01963
G1 X46.082 Y126.724 E43.04721
G1 X45.411 Y126.238 E43.07477
G1 X44.789 Y125.689 E43.10236
G1 X44.223 Y125.083 E43.12994
G1 X43.718 Y124.425 E43.15753
G1 X43.279 Y123.722 E43.1851
G1 X42.91 Y122.979 E43.21269
G1 X42.614 Y122.204 E43.24028
G1 X42.394 Y121.405 E43.26784
G1 X42.252 Y120.588 E43.29543
G1 X42.186 Y119.525 E43.33085
G1 X42.186 Y100.475 E43.96445
G1 X42.226 Y99.647 E43.99203
G1 X42.346 Y98.826 E44.01962
G1 X42.544 Y98.021 E44.04719
G1 X42.818 Y97.239 E44.07475
G1 X43.167 Y96.486 E44.10236
G1 X43.587 Y95.771 E44.12994
G1 X44.073 Y95.1 E44.1575
G1 X44.622 Y94.478 E44.18509
G1 X45.228 Y93.912 E44.21267
G1 X45.886 Y93.407 E44.24026
G1 X46.589 Y92.968 E44.26782
G0 F6000 X46.969 Y93.218
G1 F1200 X47.703 Y92.876 E44.29476
G1 X48.468 Y92.61 E44.32169
G1 X49.255 Y92.419 E44.34863
G1 X50.057 Y92.307 E44.37556
G1 X50.786 Y92.275 E44.39983
G1 X169.214 Y92.275 E48.33876
G1 X170.023 Y92.315 E48.3657
G1 X170.824 Y92.435 E48.39264
G1 X171.609 Y92.632 E48.41956
G1 X172.37 Y92.907 E48.44648
G1 X173.101 Y93.255 E48.4734
G1 X173.795 Y93.674 E48.50037
G1 X174.443 Y94.159 E48.52729
G1 X175.04 Y94.705 E48.5542
G1 X175.581 Y95.308 E48.58114
G1 X176.06 Y95.961 E48.60808
G1 X176.471 Y96.658 E48.63499
G1 X176.813 Y97.392 E48.66192
G1 X177.079 Y98.157 E48.68886
G1 X177.27 Y98.944 E48.71579
G1 X177.382 Y99.746 E48.74273
G1 X177.414 Y100.475 E48.767
G1 X177.414 Y119.525 E49.4006
G1 X177.374 Y120.334 E49.42754
G1 X177.254 Y121.135 E49.45448
G1 X177.057 Y121.92 E49.4814
G1 X176.782 Y122.681 E49.50831
G1 X176.434 Y123.412 E49.53524
G1 X176.015 Y124.106 E49.56221
G1 X175.53 Y124.754 E49.58913
G1 X174.984 Y125.351 E49.61603
G1 X174.381 Y125.892 E49.64298
G1 X173.728 Y126.371 E49.66991
G1 X173.031 Y126.782 E49.69683
G1 X172.297 Y127.124 E49.72376
G1 X171.532 Y127.39 E49.7507
G1 X170.745 Y127.581 E49.77763
G1 X169.943 Y127.693 E49.80457
G1 X169.214 Y127.725 E49.82884
G1 X50.786 Y127.725 E53.76777
G1 X49.977 Y127.685 E53.79471
G1 X49.176 Y127.565 E53.82165
G1 X48.391 Y127.368 E53.84857
G1 X47.63 Y127.093 E53.87548
G1 X46.899 Y126.745 E53.90241
G1 X46.205 Y126.326 E53.92937
G1 X45.557 Y125.841 E53.95629
G1 X44.96 Y125.295 E53.9832
G1 X44.419 Y124.692 E54.01014
G1 X43.94 Y124.039 E54.03708
G1 X43.529 Y123.342 E54.06399
G1 X43.187 Y122.608 E54.09093
G1 X42.921 Y121.843 E54.11786
G1 X42.73 Y121.056 E54.1448
G1 X42.618 Y120.254 E54.17173
G1 X42.586 Y119.525 E54.196
G1 X42.586 Y100.475 E54.82961
G1 X42.626 Y99.666 E54.85655
G1 X42.746 Y98.865 E54.88349
G1 X42.943 Y98.08 E54.91041
G1 X43.218 Y97.319 E54.93732
G1 X43.566 Y96.588 E54.96425
G1 X43.985 Y95.894 E54.99121
G1 X44.47 Y95.246 E55.01813
G1 X45.016 Y94.649 E55.04504
G1 X45.619 Y94.108 E55.07198
G1 X46.272 Y93.629 E55.09892
G1 X46.969 Y93.218 E55.12583
G0 F6000 X47.347 Y93.474
G1 F1200 X48.072 Y93.162 E55.15208
G1 X48.825 Y92.925 E55.17834
G1 X49.599 Y92.766 E55.20462
G1 X50.384 Y92.685 E55.23087
G1 X50.786 Y92.675 E55.24424
G1 X169.214 Y92.675 E59.18317
G1 X170.003 Y92.715 E59.20945
G1 X170.783 Y92.834 E59.23569
G1 X171.548 Y93.032 E59.26198
G1 X172.288 Y93.306 E59.28822
G1 X172.997 Y93.654 E59.31449
G1 X173.668 Y94.072 E59.34078
G1 X174.292 Y94.555 E59.36703
G1 X174.865 Y95.098 E59.39328
G1 X175.38 Y95.697 E59.41956
G1 X175.831 Y96.345 E59.44582
G1 X176.215 Y97.036 E59.47211
G1 X176.527 Y97.761 E59.49836
G1 X176.764 Y98.514 E59.52462
G1 X176.923 Y99.288 E59.5509
G1 X177.004 Y100.073 E59.57715
G1 X177.014 Y100.475 E59.59052
G1 X177.014 Y119.525 E60.22413
G1 X176.974 Y120.314 E60.2504
G1 X176.855 Y121.094 E60.27665
G1 X176.657 Y121.859 E60.30293
G1 X176.383 Y122.599 E60.32917
G1 X176.035 Y123.308 E60.35544
G1 X175.617 Y123.979 E60.38174
G1 X175.134 Y124.603 E60.40798
G1 X174.591 Y125.176 E60.43424
G1 X173.992 Y125.691 E60.46051
G1 X173.344 Y126.142 E60.48677
G1 X172.653 Y126.526 E60.51306
G1 X171.928 Y126.838 E60.53932
G1 X171.175 Y127.075 E60.56557
G1 X170.401 Y127.234 E60.59185
G1 X169.616 Y127.315 E60.6181
G1 X169.214 Y127.325 E60.63148
G1 X50.786 Y127.325 E64.57041
G1 X49.997 Y127.285 E64.59668
G1 X49.217 Y127.166 E64.62293
G1 X48.452 Y126.968 E64.64921
G1 X47.712 Y126.694 E64.67545
G1 X47.003 Y126.346 E64.70172
G1 X46.332 Y125.928 E64.72802
G1 X45.708 Y125.445 E64.75426
G1 X45.135 Y124.902 E64.78052
G1 X44.62 Y124.303 E64.80679
G1 X44.169 Y123.655 E64.83305
G1 X43.785 Y122.964 E64.85934
G1 X43.473 Y122.239 E64.8856
G1 X43.236 Y121.486 E64.91185
G1 X43.077 Y120.712 E64.93813
G1 X42.996 Y119.927 E64.96438
G1 X42.986 Y119.525 E64.97775
G1 X42.986 Y100.475 E65.61136
G1 X43.026 Y99.686 E65.63764
G1 X43.145 Y98.906 E65.66388
G1 X43.343 Y98.141 E65.69016
G1 X43.617 Y97.401 E65.71641
G1 X43.965 Y96.692 E65.74268
G1 X44.383 Y96.021 E65.76897
G1 X44.866 Y95.397 E65.79522
G1 X45.409 Y94.824 E65.82147
G1 X46.008 Y94.309 E65.84775
G1 X46.656 Y93.858 E65.874
G1 X47.347 Y93.474 E65.9003
G0 F6000 X47.039 Y94.094
G1 F1200 X47.722 Y93.739 E65.9259
G1 X48.437 Y93.458 E65.95145
G1 X49.179 Y93.252 E65.97706
G1 X49.937 Y93.124 E66.00263
G1 X50.786 Y93.075 E66.03092
G1 X169.214 Y93.075 E69.96985
G1 X169.982 Y93.115 E69.99543
G1 X170.742 Y93.234 E70.02101
G1 X171.485 Y93.432 E70.04659
G1 X172.204 Y93.706 E70.07218
G1 X172.89 Y94.053 E70.09775
G1 X173.537 Y94.469 E70.12333
G1 X174.137 Y94.95 E70.14891
G1 X174.684 Y95.491 E70.1745
G1 X175.172 Y96.086 E70.20009
G1 X175.595 Y96.728 E70.22566
G1 X175.95 Y97.411 E70.25126
G1 X176.231 Y98.126 E70.27682
G1 X176.437 Y98.868 E70.30243
G1 X176.565 Y99.626 E70.328
G1 X176.614 Y100.475 E70.35628
G1 X176.614 Y119.525 E70.98989
G1 X176.574 Y120.293 E71.01547
G1 X176.455 Y121.053 E71.04105
G1 X176.257 Y121.796 E71.06663
G1 X175.983 Y122.515 E71.09222
G1 X175.636 Y123.201 E71.11779
G1 X175.22 Y123.848 E71.14337
G1 X174.739 Y124.448 E71.16895
G1 X174.198 Y124.995 E71.19454
G1 X173.603 Y125.483 E71.22013
G1 X172.961 Y125.906 E71.2457
G1 X172.278 Y126.261 E71.2713
G1 X171.563 Y126.542 E71.29686
G1 X170.821 Y126.748 E71.32247
G1 X170.063 Y126.876 E71.34804
G1 X169.214 Y126.925 E71.37632
G1 X50.786 Y126.925 E75.31525
G1 X50.018 Y126.885 E75.34083
G1 X49.258 Y126.766 E75.36642
G1 X48.515 Y126.568 E75.39199
G1 X47.796 Y126.294 E75.41758
G1 X47.11 Y125.947 E75.44315
G1 X46.463 Y125.531 E75.46874
G1 X45.863 Y125.05 E75.49431
G1 X45.316 Y124.509 E75.5199
G1 X44.828 Y123.914 E75.5455
G1 X44.405 Y123.272 E75.57107
G1 X44.05 Y122.589 E75.59667
G1 X43.769 Y121.874 E75.62222
G1 X43.563 Y121.132 E75.64783
G1 X43.435 Y120.374 E75.6734
G1 X43.386 Y119.525 E75.70169
G1 X43.386 Y100.475 E76.33529
G1 X43.426 Y99.707 E76.36087
G1 X43.545 Y98.947 E76.38646
G1 X43.743 Y98.204 E76.41203
G1 X44.017 Y97.485 E76.43762
G1 X44.364 Y96.799 E76.46319
G1 X44.78 Y96.152 E76.48877
G1 X45.261 Y95.552 E76.51435
G1 X45.802 Y95.005 E76.53994
G1 X46.397 Y94.517 E76.56553
G1 X47.039 Y94.094 E76.59111
G0 F6000 X47.42 Y94.337
G1 F1200 X48.094 Y94.013 E76.61598
G1 X48.799 Y93.763 E76.64086
G1 X49.527 Y93.589 E76.66575
G1 X50.269 Y93.494 E76.69063
G1 X50.786 Y93.475 E76.70784
G1 X169.214 Y93.475 E80.64677
G1 X169.961 Y93.515 E80.67165
G1 X170.699 Y93.634 E80.69652
G1 X171.421 Y93.832 E80.72142
G1 X172.117 Y94.105 E80.74628
G1 X172.78 Y94.452 E80.77117
G1 X173.403 Y94.867 E80.79607
G1 X173.977 Y95.346 E80.82093
G1 X174.498 Y95.883 E80.84582
G1 X174.957 Y96.473 E80.87068
G1 X175.352 Y97.109 E80.89558
G1 X175.676 Y97.783 E80.92046
