;FLAVOR:Marlin
;TIME:27041
;Filament used: 18.5198m
;Layer height: 0.2
;MINX:40.986
;MINY:60.429
;MINZ:0.2
;MAXX:179.014
;MAXY:159.571
;MAXZ:10.4
;Generated with Cura_SteamEngine 4.11.0
M140 S50
M105
M190 S50
M104 S200
M105
M109 S200
M82 ;absolute extrusion mode
; Ender 3 Custom Start G-code
G92 E0 ; Reset Extruder
G28 ; Home all axes
G29 ; Auto bed-level (BL-Touch)
G1 Z2.0 F3000 ; Move Z Axis up little to prevent scratching of Heat Bed
G1 X0.1 Y20 Z0.3 F5000.0 ; Move to start position
G1 X0.1 Y200.0 Z0.3 F1500.0 E15 ; Draw the first line
G1 X0.4 Y200.0 Z0.3 F5000.0 ; Move to side a little
G1 X0.4 Y20 Z0.3 F1500.0 E30 ; Draw the second line
G92 E0 ; Reset Extruder
G1 Z2.0 F3000 ; Move Z Axis up little to prevent scratching of Heat Bed
G1 X5 Y20 Z0.3 F5000.0 ; Move over to prevent blob squish
G92 E0
G92 E0
G1 F2700 E-5
;LAYER_COUNT:52
;LAYER:0
M107
G0 F6000 X44.722 Y62.531 Z0.2
;TYPE:SKIRT
G1 F2700 E0
G1 F1200 X45.441 Y62.015 E0.02944
G1 X46.204 Y61.566 E0.05888
G1 X47.005 Y61.188 E0.08834
G1 X47.836 Y60.884 E0.11777
G1 X48.691 Y60.656 E0.1472
G1 X49.564 Y60.506 E0.17666
G1 X50.786 Y60.429 E0.21739
G1 X169.214 Y60.429 E4.15632
G1 X170.098 Y60.469 E4.18575
G1 X170.975 Y60.589 E4.21519
G1 X171.838 Y60.787 E4.24464
G1 X172.679 Y61.062 E4.27407
G1 X173.492 Y61.412 E4.30351
G1 X174.271 Y61.834 E4.33298
G1 X175.007 Y62.325 E4.3624
G1 X175.697 Y62.88 E4.39186
G1 X176.334 Y63.495 E4.42131
G1 X176.912 Y64.165 E4.45074
G1 X177.428 Y64.884 E4.48017
G1 X177.877 Y65.647 E4.50962
G1 X178.255 Y66.448 E4.53908
G1 X178.559 Y67.279 E4.56851
G1 X178.787 Y68.134 E4.59794
G1 X178.937 Y69.007 E4.6274
G1 X179.014 Y70.229 E4.66812
G1 X179.014 Y149.771 E7.3137
G1 X178.974 Y150.655 E7.34313
G1 X178.854 Y151.532 E7.37257
G1 X178.656 Y152.395 E7.40202
G1 X178.381 Y153.236 E7.43145
G1 X178.031 Y154.049 E7.46089
G1 X177.609 Y154.828 E7.49036
G1 X177.118 Y155.564 E7.51979
G1 X176.563 Y156.254 E7.54924
G1 X175.948 Y156.891 E7.57869
G1 X175.278 Y157.469 E7.60812
G1 X174.559 Y157.985 E7.63755
G1 X173.796 Y158.434 E7.667
G1 X172.995 Y158.812 E7.69646
G1 X172.164 Y159.116 E7.72589
G1 X171.309 Y159.344 E7.75532
G1 X170.436 Y159.494 E7.78478
G1 X169.214 Y159.571 E7.82551
G1 X50.786 Y159.571 E11.76444
G1 X49.902 Y159.531 E11.79387
G1 X49.025 Y159.411 E11.82331
G1 X48.162 Y159.213 E11.85276
G1 X47.321 Y158.938 E11.88219
G1 X46.508 Y158.588 E11.91163
G1 X45.729 Y158.166 E11.9411
G1 X44.993 Y157.675 E11.97052
G1 X44.303 Y157.12 E11.99997
G1 X43.666 Y156.505 E12.02942
G1 X43.088 Y155.835 E12.05885
G1 X42.572 Y155.116 E12.08829
G1 X42.123 Y154.353 E12.11774
G1 X41.745 Y153.552 E12.14719
G1 X41.441 Y152.721 E12.17662
G1 X41.213 Y151.866 E12.20606
G1 X41.063 Y150.993 E12.23552
G1 X40.986 Y149.771 E12.27624
G1 X40.986 Y70.229 E14.92182
G1 X41.026 Y69.345 E14.95125
G1 X41.146 Y68.468 E14.98069
G1 X41.344 Y67.605 E15.01014
G1 X41.619 Y66.764 E15.03957
G1 X41.969 Y65.951 E15.06901
G1 X42.391 Y65.172 E15.09848
G1 X42.882 Y64.436 E15.12791
G1 X43.437 Y63.746 E15.15736
G1 X44.052 Y63.109 E15.18681
G1 X44.722 Y62.531 E15.21624
G0 F6000 X45.111 Y62.735
G1 F1200 X45.825 Y62.245 E15.24504
G1 X46.582 Y61.821 E15.2739
G1 X47.375 Y61.47 E15.30274
G1 X48.196 Y61.193 E15.33156
G1 X49.04 Y60.993 E15.36041
G1 X49.898 Y60.871 E15.38923
G1 X50.786 Y60.829 E15.4188
G1 X169.214 Y60.829 E19.35773
G1 X170.08 Y60.869 E19.38657
G1 X170.939 Y60.989 E19.41541
G1 X171.783 Y61.187 E19.44425
G1 X172.605 Y61.462 E19.47308
G1 X173.398 Y61.812 E19.50191
G1 X174.156 Y62.233 E19.53075
G1 X174.871 Y62.722 E19.55956
G1 X175.539 Y63.275 E19.5884
G1 X176.153 Y63.888 E19.61726
G1 X176.708 Y64.554 E19.64609
G1 X177.198 Y65.268 E19.67489
G1 X177.622 Y66.025 E19.70375
G1 X177.973 Y66.818 E19.7326
G1 X178.25 Y67.639 E19.76141
G1 X178.45 Y68.483 E19.79026
G1 X178.572 Y69.341 E19.81909
G1 X178.614 Y70.229 E19.84866
G1 X178.614 Y149.771 E22.49423
G1 X178.574 Y150.637 E22.52307
G1 X178.454 Y151.496 E22.55192
G1 X178.256 Y152.34 E22.58075
G1 X177.981 Y153.162 E22.60958
G1 X177.631 Y153.955 E22.63841
G1 X177.21 Y154.713 E22.66725
G1 X176.721 Y155.428 E22.69606
G1 X176.168 Y156.096 E22.7249
G1 X175.555 Y156.71 E22.75376
G1 X174.889 Y157.265 E22.78259
G1 X174.175 Y157.755 E22.81139
G1 X173.418 Y158.179 E22.84025
G1 X172.625 Y158.53 E22.8691
G1 X171.804 Y158.807 E22.89792
G1 X170.96 Y159.007 E22.92676
G1 X170.102 Y159.129 E22.95559
G1 X169.214 Y159.171 E22.98516
G1 X50.786 Y159.171 E26.92409
G1 X49.92 Y159.131 E26.95292
G1 X49.061 Y159.011 E26.98177
G1 X48.217 Y158.813 E27.0106
G1 X47.395 Y158.538 E27.03943
G1 X46.602 Y158.188 E27.06826
G1 X45.844 Y157.767 E27.0971
G1 X45.129 Y157.278 E27.12591
G1 X44.461 Y156.725 E27.15476
G1 X43.847 Y156.112 E27.18361
G1 X43.292 Y155.446 E27.21245
G1 X42.802 Y154.732 E27.24125
G1 X42.378 Y153.975 E27.27011
G1 X42.027 Y153.182 E27.29895
G1 X41.75 Y152.361 E27.32777
G1 X41.55 Y151.517 E27.35662
G1 X41.428 Y150.659 E27.38544
G1 X41.386 Y149.771 E27.41501
G1 X41.386 Y70.229 E30.06059
G1 X41.426 Y69.363 E30.08942
G1 X41.546 Y68.504 E30.11827
G1 X41.744 Y67.66 E30.1471
G1 X42.019 Y66.838 E30.17593
G1 X42.369 Y66.045 E30.20476
G1 X42.79 Y65.287 E30.2336
G1 X43.279 Y64.572 E30.26241
G1 X43.832 Y63.904 E30.29126
G1 X44.445 Y63.29 E30.32011
G1 X45.111 Y62.735 E30.34895
G0 F6000 X45.499 Y62.946
G1 F1200 X46.208 Y62.48 E30.37717
G1 X46.958 Y62.084 E30.40538
G1 X47.742 Y61.759 E30.4336
G1 X48.553 Y61.51 E30.46182
G1 X49.384 Y61.339 E30.49004
G1 X50.227 Y61.246 E30.51825
G1 X50.786 Y61.229 E30.53685
G1 X169.214 Y61.229 E34.47578
G1 X170.061 Y61.269 E34.50398
G1 X170.901 Y61.389 E34.5322
G1 X171.726 Y61.587 E34.56042
G1 X172.529 Y61.862 E34.58865
G1 X173.302 Y62.211 E34.61686
G1 X174.038 Y62.631 E34.64505
G1 X174.732 Y63.119 E34.67327
G1 X175.377 Y63.67 E34.70148
G1 X175.967 Y64.28 E34.72971
G1 X176.497 Y64.942 E34.75791
G1 X176.963 Y65.651 E34.78613
G1 X177.359 Y66.401 E34.81434
G1 X177.684 Y67.185 E34.84257
G1 X177.933 Y67.996 E34.87078
G1 X178.104 Y68.827 E34.899
G1 X178.197 Y69.67 E34.92721
G1 X178.214 Y70.229 E34.94581
G1 X178.214 Y149.771 E37.59139
G1 X178.174 Y150.618 E37.61959
G1 X178.054 Y151.458 E37.64781
G1 X177.856 Y152.283 E37.67603
G1 X177.581 Y153.086 E37.70426
G1 X177.232 Y153.859 E37.73247
G1 X176.812 Y154.595 E37.76066
G1 X176.324 Y155.289 E37.78887
G1 X175.773 Y155.934 E37.81709
G1 X175.163 Y156.524 E37.84532
G1 X174.501 Y157.054 E37.87352
G1 X173.792 Y157.52 E37.90174
G1 X173.042 Y157.916 E37.92995
G1 X172.258 Y158.241 E37.95818
G1 X171.447 Y158.49 E37.98639
G1 X170.616 Y158.661 E38.01461
G1 X169.773 Y158.754 E38.04282
G1 X169.214 Y158.771 E38.06142
G1 X50.786 Y158.771 E42.00035
G1 X49.939 Y158.731 E42.02855
G1 X49.099 Y158.611 E42.05678
G1 X48.274 Y158.413 E42.085
G1 X47.471 Y158.138 E42.11323
G1 X46.698 Y157.789 E42.14144
G1 X45.962 Y157.369 E42.16962
G1 X45.268 Y156.881 E42.19784
G1 X44.623 Y156.33 E42.22605
G1 X44.033 Y155.72 E42.25428
G1 X43.503 Y155.058 E42.28248
G1 X43.037 Y154.349 E42.3107
G1 X42.641 Y153.599 E42.33891
G1 X42.316 Y152.815 E42.36714
G1 X42.067 Y152.004 E42.39536
G1 X41.896 Y151.173 E42.42357
G1 X41.803 Y150.33 E42.45178
G1 X41.786 Y149.771 E42.47038
G1 X41.786 Y70.229 E45.11596
G1 X41.826 Y69.382 E45.14416
G1 X41.946 Y68.542 E45.17239
G1 X42.144 Y67.717 E45.20061
G1 X42.419 Y66.914 E45.22884
G1 X42.768 Y66.141 E45.25705
G1 X43.188 Y65.405 E45.28523
G1 X43.676 Y64.711 E45.31345
G1 X44.227 Y64.066 E45.34166
G1 X44.837 Y63.476 E45.36989
G1 X45.499 Y62.946 E45.39809
G0 F6000 X45.228 Y63.666
G1 F1200 X45.886 Y63.161 E45.42568
G1 X46.589 Y62.722 E45.45325
G1 X47.332 Y62.353 E45.48084
G1 X48.107 Y62.057 E45.50843
G1 X48.906 Y61.837 E45.536
G1 X49.723 Y61.695 E45.56358
G1 X50.786 Y61.629 E45.599
G1 X169.214 Y61.629 E49.53793
G1 X170.042 Y61.669 E49.5655
G1 X170.863 Y61.789 E49.5931
G1 X171.668 Y61.987 E49.62067
G1 X172.45 Y62.261 E49.64823
G1 X173.203 Y62.61 E49.67584
G1 X173.918 Y63.03 E49.70342
G1 X174.589 Y63.516 E49.73097
G1 X175.211 Y64.065 E49.75857
G1 X175.777 Y64.671 E49.78615
G1 X176.282 Y65.329 E49.81374
G1 X176.721 Y66.032 E49.8413
G1 X177.09 Y66.775 E49.86889
G1 X177.386 Y67.55 E49.89649
G1 X177.606 Y68.349 E49.92405
G1 X177.748 Y69.166 E49.95163
G1 X177.814 Y70.229 E49.98705
G1 X177.814 Y149.771 E52.63263
G1 X177.774 Y150.599 E52.6602
G1 X177.654 Y151.42 E52.6878
G1 X177.456 Y152.225 E52.71537
G1 X177.182 Y153.007 E52.74293
G1 X176.833 Y153.76 E52.77054
G1 X176.413 Y154.475 E52.79812
G1 X175.927 Y155.146 E52.82567
G1 X175.378 Y155.768 E52.85327
G1 X174.772 Y156.334 E52.88085
G1 X174.114 Y156.839 E52.90843
G1 X173.411 Y157.278 E52.936
G1 X172.668 Y157.647 E52.96359
G1 X171.893 Y157.943 E52.99119
G1 X171.094 Y158.163 E53.01875
G1 X170.277 Y158.305 E53.04633
G1 X169.214 Y158.371 E53.08175
G1 X50.786 Y158.371 E57.02069
G1 X49.958 Y158.331 E57.04826
G1 X49.137 Y158.211 E57.07585
G1 X48.332 Y158.013 E57.10343
G1 X47.55 Y157.739 E57.13099
G1 X46.797 Y157.39 E57.15859
G1 X46.082 Y156.97 E57.18617
G1 X45.411 Y156.484 E57.21373
G1 X44.789 Y155.935 E57.24132
G1 X44.223 Y155.329 E57.2689
G1 X43.718 Y154.671 E57.29649
G1 X43.279 Y153.968 E57.32405
G1 X42.91 Y153.225 E57.35165
G1 X42.614 Y152.45 E57.37924
G1 X42.394 Y151.651 E57.4068
G1 X42.252 Y150.834 E57.43438
G1 X42.186 Y149.771 E57.46981
G1 X42.186 Y70.229 E60.11539
G1 X42.226 Y69.401 E60.14296
G1 X42.346 Y68.58 E60.17055
G1 X42.544 Y67.775 E60.19813
G1 X42.818 Y66.993 E60.22569
G1 X43.167 Y66.24 E60.25329
G1 X43.587 Y65.525 E60.28087
G1 X44.073 Y64.854 E60.30843
G1 X44.622 Y64.232 E60.33602
G1 X45.228 Y63.666 E60.3636
G0 F6000 X45.619 Y63.862
G1 F1200 X46.272 Y63.383 E60.39054
G1 X46.969 Y62.972 E60.41745
G1 X47.703 Y62.63 E60.44438
G1 X48.468 Y62.364 E60.47132
G1 X49.255 Y62.173 E60.49825
G1 X50.057 Y62.061 E60.52519
G1 X50.786 Y62.029 E60.54946
G1 X169.214 Y62.029 E64.48839
G1 X170.023 Y62.069 E64.51533
G1 X170.824 Y62.189 E64.54227
G1 X171.609 Y62.386 E64.56919
G1 X172.37 Y62.661 E64.5961
G1 X173.101 Y63.009 E64.62303
G1 X173.795 Y63.428 E64.64999
G1 X174.443 Y63.913 E64.67691
G1 X175.04 Y64.459 E64.70382
G1 X175.581 Y65.062 E64.73076
G1 X176.06 Y65.715 E64.7577
G1 X176.471 Y66.412 E64.78461
G1 X176.813 Y67.146 E64.81155
G1 X177.079 Y67.911 E64.83848
G1 X177.27 Y68.698 E64.86542
G1 X177.382 Y69.5 E64.89235
G1 X177.414 Y70.229 E64.91662
G1 X177.414 Y149.771 E67.5622
G1 X177.374 Y150.58 E67.58914
G1 X177.254 Y151.381 E67.61608
G1 X177.057 Y152.166 E67.643
G1 X176.782 Y152.927 E67.66991
G1 X176.434 Y153.658 E67.69684
G1 X176.015 Y154.352 E67.7238
G1 X175.53 Y155 E67.75072
G1 X174.984 Y155.597 E67.77763
G1 X174.381 Y156.138 E67.80458
G1 X173.728 Y156.617 E67.83151
G1 X173.031 Y157.028 E67.85842
G1 X172.297 Y157.37 E67.88536
G1 X171.532 Y157.636 E67.9123
G1 X170.745 Y157.827 E67.93923
G1 X169.943 Y157.939 E67.96616
G1 X169.214 Y157.971 E67.99043
G1 X50.786 Y157.971 E71.92937
G1 X49.977 Y157.931 E71.95631
G1 X49.176 Y157.811 E71.98324
G1 X48.391 Y157.614 E72.01016
G1 X47.63 Y157.339 E72.03708
G1 X46.899 Y156.991 E72.064
G1 X46.205 Y156.572 E72.09097
G1 X45.557 Y156.087 E72.11789
G1 X44.96 Y155.541 E72.1448
G1 X44.419 Y154.938 E72.17174
G1 X43.94 Y154.285 E72.19868
G1 X43.529 Y153.588 E72.22559
G1 X43.187 Y152.854 E72.25252
G1 X42.921 Y152.089 E72.27946
G1 X42.73 Y151.302 E72.3064
G1 X42.618 Y150.5 E72.33333
G1 X42.586 Y149.771 E72.3576
G1 X42.586 Y70.229 E75.00318
G1 X42.626 Y69.42 E75.03012
G1 X42.746 Y68.619 E75.05706
G1 X42.943 Y67.834 E75.08397
G1 X43.218 Y67.073 E75.11089
G1 X43.566 Y66.342 E75.13782
G1 X43.985 Y65.648 E75.16478
G1 X44.47 Y65 E75.1917
G1 X45.016 Y64.403 E75.21861
G1 X45.619 Y63.862 E75.24555
G0 F6000 X46.008 Y64.063
G1 F1200 X46.656 Y63.612 E75.27181
G1 X47.347 Y63.228 E75.2981
G1 X48.072 Y62.916 E75.32436
G1 X48.825 Y62.679 E75.35061
G1 X49.599 Y62.52 E75.37689
G1 X50.384 Y62.439 E75.40314
G1 X50.786 Y62.429 E75.41652
G1 X169.214 Y62.429 E79.35545
G1 X170.003 Y62.469 E79.38172
G1 X170.783 Y62.588 E79.40797
G1 X171.548 Y62.786 E79.43425
G1 X172.288 Y63.06 E79.46049
G1 X172.997 Y63.408 E79.48676
G1 X173.668 Y63.826 E79.51306
G1 X174.292 Y64.309 E79.5393
G1 X174.865 Y64.852 E79.56556
G1 X175.38 Y65.451 E79.59183
G1 X175.831 Y66.099 E79.61809
G1 X176.215 Y66.79 E79.64438
G1 X176.527 Y67.515 E79.67064
G1 X176.764 Y68.268 E79.69689
G1 X176.923 Y69.042 E79.72317
G1 X177.004 Y69.827 E79.74942
G1 X177.014 Y70.229 E79.76279
G1 X177.014 Y149.771 E82.40837
G1 X176.974 Y150.56 E82.43465
G1 X176.855 Y151.34 E82.46089
G1 X176.657 Y152.105 E82.48717
G1 X176.383 Y152.845 E82.51342
G1 X176.035 Y153.554 E82.53969
G1 X175.617 Y154.225 E82.56598
G1 X175.134 Y154.849 E82.59223
G1 X174.591 Y155.422 E82.61848
G1 X173.992 Y155.937 E82.64476
G1 X173.344 Y156.388 E82.67102
G1 X172.653 Y156.772 E82.69731
G1 X171.928 Y157.084 E82.72356
G1 X171.175 Y157.321 E82.74982
G1 X170.401 Y157.48 E82.7761
G1 X169.616 Y157.561 E82.80235
G1 X169.214 Y157.571 E82.81572
G1 X50.786 Y157.571 E86.75465
G1 X49.997 Y157.531 E86.78093
G1 X49.217 Y157.412 E86.80717
G1 X48.452 Y157.214 E86.83345
G1 X47.712 Y156.94 E86.8597
G1 X47.003 Y156.592 E86.88597
G1 X46.332 Y156.174 E86.91226
G1 X45.708 Y155.691 E86.93851
G1 X45.135 Y155.148 E86.96476
G1 X44.62 Y154.549 E86.99104
G1 X44.169 Y153.901 E87.0173
G1 X43.785 Y153.21 E87.04359
G1 X43.473 Y152.485 E87.06984
G1 X43.236 Y151.732 E87.0961
G1 X43.077 Y150.958 E87.12238
G1 X42.996 Y150.173 E87.14863
G1 X42.986 Y149.771 E87.162
G1 X42.986 Y70.229 E89.80758
G1 X43.026 Y69.44 E89.83385
G1 X43.145 Y68.66 E89.8601
G1 X43.343 Y67.895 E89.88638
G1 X43.617 Y67.155 E89.91262
G1 X43.965 Y66.446 E89.93889
G1 X44.383 Y65.775 E89.96519
G1 X44.866 Y65.151 E89.99143
G1 X45.409 Y64.578 E90.01769
G1 X46.008 Y64.063 E90.04396
G0 F6000 X46.397 Y64.271
G1 F1200 X47.039 Y63.848 E90.06953
G1 X47.722 Y63.493 E90.09514
G1 X48.437 Y63.212 E90.12069
G1 X49.179 Y63.006 E90.1463
G1 X49.937 Y62.878 E90.17187
G1 X50.786 Y62.829 E90.20015
G1 X169.214 Y62.829 E94.13908
G1 X169.982 Y62.869 E94.16466
G1 X170.742 Y62.988 E94.19025
G1 X171.485 Y63.186 E94.21582
G1 X172.204 Y63.46 E94.24141
G1 X172.89 Y63.807 E94.26698
G1 X173.537 Y64.223 E94.29257
G1 X174.137 Y64.704 E94.31814
G1 X174.684 Y65.245 E94.34373
G1 X175.172 Y65.84 E94.36933
G1 X175.595 Y66.482 E94.3949
G1 X175.95 Y67.165 E94.4205
G1 X176.231 Y67.88 E94.44605
G1 X176.437 Y68.622 E94.47166
G1 X176.565 Y69.38 E94.49723
G1 X176.614 Y70.229 E94.52552
G1 X176.614 Y149.771 E97.1711
G1 X176.574 Y150.539 E97.19667
G1 X176.455 Y151.299 E97.22226
G1 X176.257 Y152.042 E97.24783
G1 X175.983 Y152.761 E97.27343
G1 X175.636 Y153.447 E97.29899
G1 X175.22 Y154.094 E97.32458
G1 X174.739 Y154.694 E97.35016
G1 X174.198 Y155.241 E97.37574
G1 X173.603 Y155.729 E97.40134
G1 X172.961 Y156.152 E97.42691
G1 X172.278 Y156.507 E97.45251
G1 X171.563 Y156.788 E97.47806
G1 X170.821 Y156.994 E97.50368
G1 X170.063 Y157.122 E97.52924
G1 X169.214 Y157.171 E97.55753
G1 X50.786 Y157.171 E101.49646
G1 X50.018 Y157.131 E101.52204
G1 X49.258 Y157.012 E101.54762
G1 X48.515 Y156.814 E101.5732
G1 X47.796 Y156.54 E101.59879
G1 X47.11 Y156.193 E101.62436
G1 X46.463 Y155.777 E101.64994
G1 X45.863 Y155.296 E101.67552
G1 X45.316 Y154.755 E101.70111
G1 X44.828 Y154.16 E101.7267
G1 X44.405 Y153.518 E101.75227
G1 X44.05 Y152.835 E101.77788
G1 X43.769 Y152.12 E101.80343
G1 X43.563 Y151.378 E101.82904
G1 X43.435 Y150.62 E101.85461
G1 X43.386 Y149.771 E101.88289
G1 X43.386 Y70.229 E104.52847
G1 X43.426 Y69.461 E104.55405
G1 X43.545 Y68.701 E104.57964
G1 X43.743 Y67.958 E104.60521
G1 X44.017 Y67.239 E104.6308
G1 X44.364 Y66.553 E104.65637
G1 X44.78 Y65.906 E104.68195
G1 X45.261 Y65.306 E104.70753
G1 X45.802 Y64.759 E104.73312
G1 X46.397 Y64.271 E104.75872
G0 F6000 X46.194 Y64.945
G1 F1200 X46.784 Y64.486 E104.78358
G1 X47.42 Y64.091 E104.80848
G1 X48.094 Y63.767 E104.83335
G1 X48.799 Y63.517 E104.85823
G1 X49.527 Y63.343 E104.88313
G1 X50.269 Y63.248 E104.90801
G1 X50.786 Y63.229 E104.92521
G1 X169.214 Y63.229 E108.86414
G1 X169.961 Y63.269 E108.88903
G1 X170.699 Y63.388 E108.91389
G1 X171.421 Y63.586 E108.93879
G1 X172.117 Y63.859 E108.96366
G1 X172.78 Y64.206 E108.98854
G1 X173.403 Y64.621 E109.01344
G1 X173.977 Y65.1 E109.03831
G1 X174.498 Y65.637 E109.06319
G1 X174.957 Y66.227 E109.08806
